!!!!SEGMENT: pl-cz--iii-193--005_elsner-jozef--missa-b-op-47-agnus.krn
!!!cenid: 18xx:238
!!!COM: Elsner, Józef
!!!COM-rismID:
!!!CDT: 1769/06/01-1854/04/18
!!!CNT: Polish
!!!OPR: Missa B op. 47
!!!OTL: Agnus
!!!OMV: 005
!!!PDT:
!!!AGN: Sacred; Mass
!!!SMS-siglum: PL-CZ
!!!SMS-shelfmark: III-193
!!!SMS-shelfwork: 001-005 M
!!!NIFC-rismSourceID:
!!!NIFC-islandoraID: pl-cz:35823
!!!URL-pdf-islandora: https://repozytorium.nifc.pl/islandora/object/pl-cz%3A35823/datastream/PDF/view
!!!URL-scan:
!!!ONB-nifc: UWAGA: części Mszy: Kyrie, Gloria, Credo, Sanctus, Agnus, Dona
!!!AIN: 1 alto 1 bass 1 cello 2 clars 2 cor 2 empty 2 fagot 1 flt 2 oboe 1 organ 1 tenor 1 timpa 1 tromt 1 viola 2 violn 1 vox
!!!key:
**kern	**kern	**dynam	**kern	**dynam	**kern	**dynam	**kern	**dynam	**kern	**dynam	**kern	**text	**text	**kern	**text	**kern	**text	**dynam	**kern	**text	**dynam	**kern	**kern	**kern	**kern	**kern	**dynam	**kern	**dynam	**kern	**dynam	**kern	**dynam	**kern	**dynam	**kern	**dynam	**kern	**kern	**kern
*part22	*part22	*part22	*part21	*part21	*part20	*part20	*part19	*part19	*part18	*part18	*part17	*part17	*part17	*part16	*part16	*part15	*part15	*part15	*part14	*part14	*part14	*part13	*part12	*part11	*part10	*part9	*part9	*part8	*part8	*part7	*part7	*part6	*part6	*part5	*part5	*part4	*part4	*part3	*part2	*part1
*	*	*	*group4	*	*group4	*	*group4	*	*group4	*	*group3	*	*	*group3	*	*group3	*	*	*group3	*	*	*	*group2	*group2	*group2	*group2	*	*group2	*	*group1	*	*group1	*	*group1	*	*group1	*	*group1	*group1	*group1
*staff23	*staff22	*	*staff21	*	*staff20	*	*staff19	*	*staff18	*	*staff17	*staff17	*staff17	*staff16	*staff16	*staff15	*staff15	*	*staff14	*staff14	*	*staff13	*staff12	*staff11	*staff10	*staff9	*	*staff8	*	*staff7	*	*staff6	*	*staff5	*	*staff4	*	*staff3	*staff2	*staff1
*Iorgan	*Iempty	*	*Icello	*	*Iviola	*	*Ivioln	*	*Ivioln	*	*Ibass	*	*	*Itenor	*	*Ialto	*	*	*Ivox	*	*	*Itimpa	*Itromt	*Iempty	*Iempty	*Icor	*	*Icor	*	*Ifagot	*	*Ifagot	*	*Iclars	*	*Iclars	*	*Ioboe	*Ioboe	*Iflt
*I"Organo.	*	*	*I"Violon e Violoncello.	*	*I"Viola.	*	*I"Violino Secondo.	*	*I"Violino Primo.	*	*I"Basso.	*	*	*I"Tenore.	*	*I"Alto.	*	*	*I"Canto.	*	*	*I"Timpani in Es. et B.	*I"Trombono.	*I"Clarino Secondo in B.	*I"Clarino Primo in B.	*I"Corno Secondo in Es.	*	*I"Corno Primo in Es.	*	*I"Fagotto Secondo.	*	*I"Fagotto Primo.	*	*I"Clarinetto Secondo in B.	*	*I"Clarinetto 1mo in B	*	*I"Oboe Secondo.	*I"Oboe Primo.	*I"Flautto Secondo.
*I'Org	*	*	*I'Vc	*	*I'Va	*	*I'Vn II	*	*I'Vn I	*	*I'B.	*	*	*I'T.	*	*I'A	*	*	*I'C	*	*	*I'Timp	*I'Tbn	*I'Clrno II in B	*I'Clrno I in B	*I'Cor II in Es	*	*I'Cor I in Es	*	*I'Fg II	*	*I'Fg I	*	*I'Cl II in B	*	*I'Cl I in B	*	*I'Ob II	*I'Ob I	*I'Fl II
*clefF4	*clefG2	*	*clefF4	*	*clefC3	*	*clefG2	*	*clefG2	*	*clefF4	*	*	*clefC4	*	*clefC3	*	*	*clefC1	*	*	*clefF4	*clefF4	*clefG2	*clefG2	*clefG2	*	*clefG2	*	*clefF4	*	*clefF4	*	*clefG2	*	*clefG2	*	*clefG2	*clefG2	*clefG2
*	*	*	*	*	*	*	*	*	*	*	*	*	*	*	*	*	*	*	*	*	*	*	*	*ITrd1c2	*ITrd1c2	*ITrd5c9	*	*ITrd5c9	*	*	*	*	*	*ITrd1c2	*	*ITrd1c2	*	*	*	*
*k[b-e-a-d-g-]	*k[b-e-a-d-g-]	*	*k[b-e-a-d-g-]	*	*k[b-e-a-d-g-]	*	*k[b-e-a-d-g-]	*	*k[b-e-a-d-g-]	*	*k[b-e-a-d-g-]	*	*	*k[b-e-a-d-g-]	*	*k[b-e-a-d-g-]	*	*	*k[b-e-a-d-g-]	*	*	*k[]	*k[b-e-a-d-g-]	*k[b-e-]	*k[b-e-]	*k[b-e-a-]	*	*k[b-e-a-]	*	*k[b-e-a-d-g-]	*	*k[b-e-a-d-g-]	*	*k[b-e-a-d-g-]	*	*k[b-e-a-d-g-]	*	*k[b-e-a-d-g-]	*k[b-e-a-d-g-]	*k[b-e-a-d-g-]
*b-:	*b-:	*	*b-:	*	*b-:	*	*b-:	*	*b-:	*	*b-:	*	*	*b-:	*	*b-:	*	*	*b-:	*	*	*b-:	*b-:	*b-:	*b-:	*b-:	*	*b-:	*	*b-:	*	*b-:	*	*b-:	*	*b-:	*	*b-:	*b-:	*b-:
*M3/4	*M3/4	*	*M3/4	*	*M3/4	*	*M3/4	*	*M3/4	*	*M3/4	*	*	*M3/4	*	*M3/4	*	*	*M3/4	*	*	*M3/4	*M3/4	*M3/4	*M3/4	*M3/4	*	*M3/4	*	*M3/4	*	*M3/4	*	*M3/4	*	*M3/4	*	*M3/4	*M3/4	*M3/4
=1	=1	=1	=1	=1	=1	=1	=1	=1	=1	=1	=1	=1	=1	=1	=1	=1	=1	=1	=1	=1	=1	=1	=1	=1	=1	=1	=1	=1	=1	=1	=1	=1	=1	=1	=1	=1	=1	=1	=1	=1
!	!LO:TX:a:Bi:t=Cornu Solo.	!	!	!	!	!	!LO:TX:a:t=1.	!	!LO:TX:a:t=2.	!	!LO:TX:a:t=7.	!	!	!LO:TX:a:t=7.	!	!LO:TX:a:t=7.	!	!	!LO:TX:a:t=7.	!	!	!LO:TX:a:t=50.	!LO:TX:a:t=15.	!LO:TX:a:t=15.	!LO:TX:a:t=15.	!LO:TX:a:t=15.	!	!LO:TX:b:Bi:t=Solo.	!	!LO:TX:a:t=15.	!	!LO:TX:a:t=15.	!	!LO:TX:a:t=15.	!	!LO:TX:a:t=15.	!	!LO:TX:a:t=15.	!LO:TX:a:t=15.	!LO:TX:a:t=16.
!	!LO:TX:a:Bi:t=Andante.	!	!LO:TX:a:Bi:t=Andante.	!	!LO:TX:a:Bi:t=Andante.	!	!LO:TX:a:Bi:t=Andante.	!	!LO:TX:a:Bi:t=Andante.	!	!LO:TX:a:Bi:t=Andante.	!	!	!LO:TX:a:Bi:t=Andante.	!	!LO:TX:a:Bi:t=Andante.	!	!	!LO:TX:a:Bi:t=Andante.	!	!	!LO:TX:a:Bi:t=Andante.	!LO:TX:a:Bi:t=Andante.	!LO:TX:a:Bi:t=Andante.	!LO:TX:a:Bi:t=Andante.	!LO:TX:a:Bi:t=Andante.	!	!LO:TX:a:Bi:t=Andante.	!	!LO:TX:a:Bi:t=Andante.	!	!LO:TX:a:Bi:t=Andante.	!	!LO:TX:a:Bi:t=Andante.	!	!LO:TX:a:Bi:t=Andante.	!	!LO:TX:a:Bi:t=Andante.	!LO:TX:a:Bi:t=Andante.	!LO:TX:a:Bi:t=Andante.
!	!	!LO:DY:b=2	!	!LO:DY:b:rj	!	!LO:DY:b	!	!	!LO:N:vis=0	!	!LO:N:vis=00	!	!	!LO:N:vis=00	!	!LO:N:vis=00	!	!	!LO:N:vis=00	!	!	!	!	!	!	!	!	!	!	!	!	!	!	!	!	!	!	!	!	!LO:TX:a:t=P:problem=brak partii Flautto Primo
(4BB-/	(4b-/	p	(4BB-/	p	(4d-\	p	2.r	.	1.r	.	0.r	.	.	0.r	.	0.r	.	.	0.r	.	.	2.r	2.r	2.r	2.r	2.r	.	(4B-/	.	2.r	.	2.r	.	2.r	.	2.r	.	2.r	2.r	2.r
4C/	4an/	.	4C/	.	4e-\	.	.	.	.	.	.	.	.	.	.	.	.	.	.	.	.	.	.	.	.	.	.	4AX/	.	.	.	.	.	.	.	.	.	.	.	.
4D-/)	4b-/)	.	4D-/)	.	4f\	.	.	.	.	.	.	.	.	.	.	.	.	.	.	.	.	.	.	.	.	.	.	4B-/)	.	.	.	.	.	.	.	.	.	.	.	.
=2	=2	=2	=2	=2	=2	=2	=2	=2	=2	=2	=2	=2	=2	=2	=2	=2	=2	=2	=2	=2	=2	=2	=2	=2	=2	=2	=2	=2	=2	=2	=2	=2	=2	=2	=2	=2	=2	=2	=2	=2
(8.E-\L	(8.gg-\L	.	(8.E-\L	.	8.g-\L	.	4r	.	.	.	.	.	.	.	.	.	.	.	.	.	.	2.r	2.r	2.r	2.r	2.r	.	(8.g-X\L	.	2.r	.	2.r	.	2.r	.	2.r	.	2.r	2.r	2.r
16F\Jk	16ff\Jk	.	16F\Jk	.	16a-\Jk	.	.	.	.	.	.	.	.	.	.	.	.	.	.	.	.	.	.	.	.	.	.	16f\Jk	.	.	.	.	.	.	.	.	.	.	.	.
4G-\)	4.ee-\	.	4G-\)	.	4b-\)	.	8r	.	.	.	.	.	.	.	.	.	.	.	.	.	.	.	.	.	.	.	.	4.e-\	.	.	.	.	.	.	.	.	.	.	.	.
.	.	.	.	.	.	.	(4e-/	.	.	.	.	.	.	.	.	.	.	.	.	.	.	.	.	.	.	.	.	.	.	.	.	.	.	.	.	.	.	.	.	.
4G-\	.	.	(4G-\	.	(<4B-/	.	.	.	.	.	.	.	.	.	.	.	.	.	.	.	.	.	.	.	.	.	.	.	.	.	.	.	.	.	.	.	.	.	.	.
.	8dd-\)	.	.	.	.	.	8d-/	.	.	.	.	.	.	.	.	.	.	.	.	.	.	.	.	.	.	.	.	8d-X\)	.	.	.	.	.	.	.	.	.	.	.	.
=3	=3	=3	=3	=3	=3	=3	=3	=3	=3	=3	=3	=3	=3	=3	=3	=3	=3	=3	=3	=3	=3	=3	=3	=3	=3	=3	=3	=3	=3	=3	=3	=3	=3	=3	=3	=3	=3	=3	=3	=3
(4c-X\	(4cc-X\	.	4c-X\	.	4e-\)	.	4c-X/)	.	4r	.	.	.	.	.	.	.	.	.	.	.	.	2.r	2.r	2.r	2.r	2.r	.	(<4c-X/	.	2.r	.	2.r	.	2.r	.	2.r	.	2.r	2.r	2.r
4d-\	4b-\	.	4d-\	.	(4f\	.	4B-/	.	8r	.	.	.	.	.	.	.	.	.	.	.	.	.	.	.	.	.	.	4B-/	.	.	.	.	.	.	.	.	.	.	.	.
.	.	.	.	.	.	.	.	.	4b-\	.	.	.	.	.	.	.	.	.	.	.	.	.	.	.	.	.	.	.	.	.	.	.	.	.	.	.	.	.	.	.
4G-\)	8.ee-\L	.	4G-\)	.	4B-/	.	8.e-/L	.	.	.	.	.	.	.	.	.	.	.	.	.	.	.	.	.	.	.	.	8.e-\L	.	.	.	.	.	.	.	.	.	.	.	.
.	.	.	.	.	.	.	.	.	8bb-\	.	.	.	.	.	.	.	.	.	.	.	.	.	.	.	.	.	.	.	.	.	.	.	.	.	.	.	.	.	.	.
.	16ff\Jk)	.	.	.	.	.	16f/Jk	.	.	.	.	.	.	.	.	.	.	.	.	.	.	.	.	.	.	.	.	16f\Jk)	.	.	.	.	.	.	.	.	.	.	.	.
=4	=4	=4	=4	=4	=4	=4	=4	=4	=4	=4	=4	=4	=4	=4	=4	=4	=4	=4	=4	=4	=4	=4	=4	=4	=4	=4	=4	=4	=4	=4	=4	=4	=4	=4	=4	=4	=4	=4	=4	=4
2.F\	2ff\	.	2.F\	.	2.c/)	.	(2f/	.	2aant\	.	.	.	.	.	.	.	.	.	.	.	.	2.r	2.r	2.r	2.r	2.r	.	2f\	.	2.r	.	2.r	.	2.r	.	2.r	.	2.r	2.r	2.r
*	*	*	*	*	*	*	*	*	*Xtuplet	*	*	*	*	*	*	*	*	*	*	*	*	*	*	*	*	*	*	*	*	*	*	*	*	*	*	*	*	*	*	*
.	4r	.	.	.	.	.	4e-/)	.	(12aa\L	.	.	.	.	.	.	.	.	.	.	.	.	.	.	.	.	.	.	4r	.	.	.	.	.	.	.	.	.	.	.	.
.	.	.	.	.	.	.	.	.	12bb-\	.	.	.	.	.	.	.	.	.	.	.	.	.	.	.	.	.	.	.	.	.	.	.	.	.	.	.	.	.	.	.
.	.	.	.	.	.	.	.	.	12ccc\J)	.	.	.	.	.	.	.	.	.	.	.	.	.	.	.	.	.	.	.	.	.	.	.	.	.	.	.	.	.	.	.
=5	=5	=5	=5	=5	=5	=5	=5	=5	=5	=5	=5	=5	=5	=5	=5	=5	=5	=5	=5	=5	=5	=5	=5	=5	=5	=5	=5	=5	=5	=5	=5	=5	=5	=5	=5	=5	=5	=5	=5	=5
!LO:LB:g=original	!LO:LB:g=original	!	!	!	!	!	!	!	!	!	!LO:N:vis=0	!	!	!LO:N:vis=0	!	!LO:N:vis=0	!	!	!LO:N:vis=0	!	!	!	!	!	!	!	!	!	!	!	!	!	!	!	!	!	!	!	!	!
2B-\	2ddn\	.	2B-\	.	[2.B-/	.	(2.dn/	.	2bb-\	.	1.r	.	.	1.r	.	1.r	.	.	1.r	.	.	2.r	2.r	2.r	2.r	2.r	.	2dn\	.	2.r	.	2.r	.	2.r	.	2.r	.	2.r	2.r	2.r
!	!	!	!	!	!	!	!	!	!	!	!	!	!	!	!	!	!	!	!	!	!	!	!	!	!	!	!	!LO:TUP:a:problem=klamra łukowa	!	!	!	!	!	!	!	!	!	!	!	!
*	*Xtuplet	*	*	*	*	*	*	*	*	*	*	*	*	*	*	*	*	*	*	*	*	*	*	*	*	*	*	*	*	*	*	*	*	*	*	*	*	*	*	*
4A-\	12dd\L	.	4A-\	.	.	.	.	.	4r	.	.	.	.	.	.	.	.	.	.	.	.	.	.	.	.	.	.	12d\L	.	.	.	.	.	.	.	.	.	.	.	.
.	12ee-\	.	.	.	.	.	.	.	.	.	.	.	.	.	.	.	.	.	.	.	.	.	.	.	.	.	.	12e-\	.	.	.	.	.	.	.	.	.	.	.	.
.	12ff\J	.	.	.	.	.	.	.	.	.	.	.	.	.	.	.	.	.	.	.	.	.	.	.	.	.	.	12f\J	.	.	.	.	.	.	.	.	.	.	.	.
=6	=6	=6	=6	=6	=6	=6	=6	=6	=6	=6	=6	=6	=6	=6	=6	=6	=6	=6	=6	=6	=6	=6	=6	=6	=6	=6	=6	=6	=6	=6	=6	=6	=6	=6	=6	=6	=6	=6	=6	=6
!	!	!	!	!	!	!	!	!	!	!	!	!	!	!	!	!	!	!	!	!	!	!	!	!	!	!	!	!LO:LB:g=original	!	!	!	!	!	!	!	!	!	!	!	!
!	!	!	!	!	!	!	!	!	!LO:TX:a:t=1.	!	!	!	!	!	!	!	!	!	!	!	!	!	!	!	!	!	!	!	!	!	!	!	!	!	!	!	!	!	!	!
8.G-\L	8.ee-\L	.	8.G-\L	.	2B-/]	.	8.e-/L	.	2.r	.	.	.	.	.	.	.	.	.	.	.	.	2.r	2.r	2.r	2.r	2.r	.	8.e-\L	.	2.r	.	2.r	.	2.r	.	2.r	.	2.r	2.r	2.r
16F\Jk	16ff\Jk	.	16F\Jk	.	.	.	16f/Jk	.	.	.	.	.	.	.	.	.	.	.	.	.	.	.	.	.	.	.	.	16f\Jk	.	.	.	.	.	.	.	.	.	.	.	.
4E-\	8.gg-\L	.	4E-\	.	.	.	4g-/)	.	.	.	.	.	.	.	.	.	.	.	.	.	.	.	.	.	.	.	.	8.g-X\L	.	.	.	.	.	.	.	.	.	.	.	.
.	16aa-\Jk	.	.	.	.	.	.	.	.	.	.	.	.	.	.	.	.	.	.	.	.	.	.	.	.	.	.	16a-\Jk	.	.	.	.	.	.	.	.	.	.	.	.
*	*tuplet	*	*	*	*	*	*	*	*	*	*	*	*	*	*	*	*	*	*	*	*	*	*	*	*	*	*	*	*	*	*	*	*	*	*	*	*	*	*	*
!	!LO:TUP:a:problem=klamra łukowa	!	!	!	!	!	!	!	!	!	!	!	!	!	!	!	!	!	!	!	!	!	!	!	!	!	!	!LO:TUP:a:problem=klamra łukowa	!	!	!	!	!	!	!	!	!	!	!	!
4r	12bb-\L	.	4r	.	4r	.	4r	.	.	.	.	.	.	.	.	.	.	.	.	.	.	.	.	.	.	.	.	12b-\L	.	.	.	.	.	.	.	.	.	.	.	.
.	12gg-\	.	.	.	.	.	.	.	.	.	.	.	.	.	.	.	.	.	.	.	.	.	.	.	.	.	.	12g-\	.	.	.	.	.	.	.	.	.	.	.	.
.	12ee-\J	.	.	.	.	.	.	.	.	.	.	.	.	.	.	.	.	.	.	.	.	.	.	.	.	.	.	12e-\J	.	.	.	.	.	.	.	.	.	.	.	.
=7	=7	=7	=7	=7	=7	=7	=7	=7	=7	=7	=7	=7	=7	=7	=7	=7	=7	=7	=7	=7	=7	=7	=7	=7	=7	=7	=7	=7	=7	=7	=7	=7	=7	=7	=7	=7	=7	=7	=7	=7
!	!	!	!LO:LB:g=original	!	!LO:LB:g=original	!	!LO:LB:g=original	!	!	!	!	!	!	!	!	!	!	!	!	!	!	!	!	!	!	!	!	!	!	!	!	!	!	!	!	!	!	!	!	!
!	!LO:TUP:a:problem=klamra łukowa	!	!	!	!	!	!	!	!	!	!	!	!	!	!	!	!	!	!	!	!	!	!	!	!	!	!	!LO:TUP:a:problem=klamra łukowa	!	!	!	!	!	!	!	!	!	!	!	!
8F\	12dd-X\L	.	8F\	.	8F/	.	8r	.	8r	.	2.r	.	.	2.r	.	2.r	.	.	2.r	.	.	2.r	2.r	2.r	2.r	2.r	.	12d-X\L	.	2.r	.	2.r	.	2.r	.	2.r	.	2.r	2.r	2.r
.	12ee-\	.	.	.	.	.	.	.	.	.	.	.	.	.	.	.	.	.	.	.	.	.	.	.	.	.	.	12e-\	.	.	.	.	.	.	.	.	.	.	.	.
8r	.	.	8r	.	8r	.	8f/	.	8dd-\	.	.	.	.	.	.	.	.	.	.	.	.	.	.	.	.	.	.	.	.	.	.	.	.	.	.	.	.	.	.	.
.	12ff\J	.	.	.	.	.	.	.	.	.	.	.	.	.	.	.	.	.	.	.	.	.	.	.	.	.	.	12f\J	.	.	.	.	.	.	.	.	.	.	.	.
8F\	4.ff\	.	8F\	.	8F/	.	8r	.	8r	.	.	.	.	.	.	.	.	.	.	.	.	.	.	.	.	.	.	4.f\	.	.	.	.	.	.	.	.	.	.	.	.
8r	.	.	8r	.	8r	.	8d-/	.	8ff\	.	.	.	.	.	.	.	.	.	.	.	.	.	.	.	.	.	.	.	.	.	.	.	.	.	.	.	.	.	.	.
8F\	.	.	8F\	.	8F/	.	8r	.	8r	.	.	.	.	.	.	.	.	.	.	.	.	.	.	.	.	.	.	.	.	.	.	.	.	.	.	.	.	.	.	.
8r	8an/	.	8r	.	8r	.	8e- 8c/	.	8an/	.	.	.	.	.	.	.	.	.	.	.	.	.	.	.	.	.	.	8AX/	.	.	.	.	.	.	.	.	.	.	.	.
=8	=8	=8	=8	=8	=8	=8	=8	=8	=8	=8	=8	=8	=8	=8	=8	=8	=8	=8	=8	=8	=8	=8	=8	=8	=8	=8	=8	=8	=8	=8	=8	=8	=8	=8	=8	=8	=8	=8	=8	=8
!	!	!	!	!	!	!	!	!	!LO:LB:g=original	!	!	!	!	!	!	!	!	!	!	!	!	!	!	!	!	!	!	!	!	!	!	!	!	!	!	!	!	!	!	!
8BB-/	4b-/	.	8BB-/	.	8B-/	.	8r	.	8r	.	(4BB-/	A-	.	2f\	A-	(4d-\	A-	.	(4b-\	A-	.	2.r	2.r	2.r	2.r	2.r	.	4B-/	.	2.r	.	2.r	.	2.r	.	2.r	.	2.r	2.r	2.r
8r	.	.	8r	.	8r	.	8d-/	.	8b-/	.	.	.	.	.	.	.	.	.	.	.	.	.	.	.	.	.	.	.	.	.	.	.	.	.	.	.	.	.	.	.
8C/	4r	.	8C/	.	8c\	.	8r	.	8r	.	4C/)	.	.	.	.	4e-\)	.	.	4an\)	.	.	.	.	.	.	.	.	4r	.	.	.	.	.	.	.	.	.	.	.	.
8r	.	.	8r	.	8r	.	8e-/	.	8an/	.	.	.	.	.	.	.	.	.	.	.	.	.	.	.	.	.	.	.	.	.	.	.	.	.	.	.	.	.	.	.
8D-/	4r	.	8D-/	.	8d-\	.	8r	.	8r	.	4D-/	-gnus	.	4f\	-gnus	4f\	-gnus	.	4b-\	-gnus	.	.	.	.	.	.	.	4r	.	.	.	.	.	.	.	.	.	.	.	.
8r	.	.	8r	.	8r	.	8f/	.	8b-/	.	.	.	.	.	.	.	.	.	.	.	.	.	.	.	.	.	.	.	.	.	.	.	.	.	.	.	.	.	.	.
=9	=9	=9	=9	=9	=9	=9	=9	=9	=9	=9	=9	=9	=9	=9	=9	=9	=9	=9	=9	=9	=9	=9	=9	=9	=9	=9	=9	=9	=9	=9	=9	=9	=9	=9	=9	=9	=9	=9	=9	=9
!LO:LB:g=original	!LO:LB:g=original	!	!	!	!	!	!	!	!	!	!	!	!	!	!	!	!	!	!	!	!	!	!	!	!	!	!	!LO:TX:a:t=7.	!	!	!	!	!	!	!	!	!	!	!	!
!	!	!	!	!	!	!	!	!	!	!	!	!	!	!	!	!	!	!	!	!	!	!	!	!	!	!	!	!LO:N:vis=00	!	!	!	!	!	!	!	!	!	!	!	!
8.E-\L	2.r	.	8.E-\L	.	8.e-\L	.	8.g-/L	.	8.gg-\L	.	(8.E-\L	De-	.	(8.e-\L	De-	(8.g-\L	De-	.	(8.gg-\L	De-	.	2.r	2.r	2.r	2.r	2.r	.	0.r	.	2.r	.	2.r	.	2.r	.	2.r	.	2.r	2.r	2.r
16F\Jk	.	.	16F\Jk	.	16f\Jk	.	16a-/Jk	.	16ff\Jk	.	16F\Jk)	.	.	16B-\Jk)	.	16a-\Jk)	.	.	16ff\Jk)	.	.	.	.	.	.	.	.	.	.	.	.	.	.	.	.	.	.	.	.	.
8G-\	.	.	8G-\	.	8g-\	.	8b-/L	.	8ee-\L	.	4G-\	-i	.	4B-\	-i	4b-\	-i	.	4ee-\	-i	.	.	.	.	.	.	.	.	.	.	.	.	.	.	.	.	.	.	.	.
8r	.	.	8r	.	8r	.	8b-/J	.	8ee-\J	.	.	.	.	.	.	.	.	.	.	.	.	.	.	.	.	.	.	.	.	.	.	.	.	.	.	.	.	.	.	.
8G-\	.	.	8G-\	.	8g-\	.	8r	.	8r	.	8r	.	.	8r	.	8r	.	.	8r	.	.	.	.	.	.	.	.	.	.	.	.	.	.	.	.	.	.	.	.	.
8r	.	.	8r	.	8r	.	8b-/	.	8ee-\	.	8G-\	qui	.	8B-\	qui	8b-\	qui	.	8ee-\	qui	.	.	.	.	.	.	.	.	.	.	.	.	.	.	.	.	.	.	.	.
=10	=10	=10	=10	=10	=10	=10	=10	=10	=10	=10	=10	=10	=10	=10	=10	=10	=10	=10	=10	=10	=10	=10	=10	=10	=10	=10	=10	=10	=10	=10	=10	=10	=10	=10	=10	=10	=10	=10	=10	=10
8F\	2.r	.	8F\	.	8f\	.	8r	.	8r	.	4F\	tol-	.	4c\	tol-	4an\	tol-	.	(16ff\LL	tol-	.	2.r	2.r	2.r	2.r	2.r	.	.	.	2.r	.	2.r	.	2.r	.	2.r	.	2.r	2.r	2.r
.	.	.	.	.	.	.	.	.	.	.	.	.	.	.	.	.	.	.	16ee-\	.	.	.	.	.	.	.	.	.	.	.	.	.	.	.	.	.	.	.	.	.
8r	.	.	8r	.	8r	.	8cc 8an\	.	8ee-\	.	.	.	.	.	.	.	.	.	16cc\	.	.	.	.	.	.	.	.	.	.	.	.	.	.	.	.	.	.	.	.	.
.	.	.	.	.	.	.	.	.	.	.	.	.	.	.	.	.	.	.	16an\JJ)	.	.	.	.	.	.	.	.	.	.	.	.	.	.	.	.	.	.	.	.	.
8F\	.	.	8F\	.	8f\	.	8r	.	8r	.	4F\	-lis	.	4c\	-lis	4a\	-lis	.	4f/	-lis	.	.	.	.	.	.	.	.	.	.	.	.	.	.	.	.	.	.	.	.
8r	.	.	8r	.	8r	.	8cc 8a\	.	8ee-\	.	.	.	.	.	.	.	.	.	.	.	.	.	.	.	.	.	.	.	.	.	.	.	.	.	.	.	.	.	.	.
8G-\	.	.	8G-\	.	8g-X\	.	8r	.	8r	.	8r	.	.	8r	.	8r	.	.	8r	.	.	.	.	.	.	.	.	.	.	.	.	.	.	.	.	.	.	.	.	.
8r	.	.	8r	.	8r	.	8b-\	.	8ee-\	.	8G-\	qui	.	8B-\	qui	8b-\	qui	.	8ee-\	qui	.	.	.	.	.	.	.	.	.	.	.	.	.	.	.	.	.	.	.	.
=11	=11	=11	=11	=11	=11	=11	=11	=11	=11	=11	=11	=11	=11	=11	=11	=11	=11	=11	=11	=11	=11	=11	=11	=11	=11	=11	=11	=11	=11	=11	=11	=11	=11	=11	=11	=11	=11	=11	=11	=11
!	!	!	!	!	!	!	!	!	!	!	!LO:LB:g=original	!	!	!LO:LB:g=original	!	!	!	!	!LO:LB:g=original	!	!	!	!	!	!	!	!	!	!	!	!	!	!	!	!	!	!	!	!	!
8F\	2.r	.	8F\	.	8f\	.	8r	.	8r	.	4F\	tol-	.	4c\	tol-	4an\	tol-	.	16ff\LL	tol-	.	2.r	2.r	2.r	2.r	2.r	.	.	.	2.r	.	2.r	.	2.r	.	2.r	.	2.r	2.r	2.r
.	.	.	.	.	.	.	.	.	.	.	.	.	.	.	.	.	.	.	16ee-\	.	.	.	.	.	.	.	.	.	.	.	.	.	.	.	.	.	.	.	.	.
8r	.	.	8r	.	8r	.	8cc 8an\	.	8ee-\	.	.	.	.	.	.	.	.	.	16cc\	.	.	.	.	.	.	.	.	.	.	.	.	.	.	.	.	.	.	.	.	.
.	.	.	.	.	.	.	.	.	.	.	.	.	.	.	.	.	.	.	16an\JJ	.	.	.	.	.	.	.	.	.	.	.	.	.	.	.	.	.	.	.	.	.
!	!	!	!	!	!	!	!	!	!	!	!	!	!	!	!	!LO:N:vis=8	!	!	!	!	!	!	!	!	!	!	!	!	!	!	!	!	!	!	!	!	!	!	!	!
8F\	.	.	8F\	.	8f\	.	8r	.	8r	.	4F\	-lis	.	4c\	-lis	4a\	-lis	.	4f/	-lis	.	.	.	.	.	.	.	.	.	.	.	.	.	.	.	.	.	.	.	.
8r	.	.	8r	.	8r	.	8cc 8a\	.	8ee-\	.	.	.	.	.	.	.	.	.	.	.	.	.	.	.	.	.	.	.	.	.	.	.	.	.	.	.	.	.	.	.
8F\	.	.	8F\	.	8f\	.	8r	.	8r	.	8r	.	.	8r	.	8r	.	.	8r	.	.	.	.	.	.	.	.	.	.	.	.	.	.	.	.	.	.	.	.	.
8r	.	.	8r	.	8r	.	8cc 8a\	.	8ee-\	.	8F\	pec-	.	8c\	pec-	8a\	pec-	.	8ee-\	pec-	.	.	.	.	.	.	.	.	.	.	.	.	.	.	.	.	.	.	.	.
=12	=12	=12	=12	=12	=12	=12	=12	=12	=12	=12	=12	=12	=12	=12	=12	=12	=12	=12	=12	=12	=12	=12	=12	=12	=12	=12	=12	=12	=12	=12	=12	=12	=12	=12	=12	=12	=12	=12	=12	=12
!	!	!	!LO:LB:g=original	!	!	!	!LO:LB:g=original	!	!	!	!	!	!	!	!	!LO:LB:g=original	!	!	!	!	!	!	!	!	!	!	!	!	!	!	!	!	!	!	!	!	!	!	!	!
8G-\	2.r	.	8G-\	.	8g-X\	.	8r	.	8r	.	(4G-\	-ca-	.	2B-\	-ca-	2b-\	-ca-	.	2dd-\	-ca-	.	2.r	2.r	2.r	2.r	2.r	.	.	.	2.r	.	2.r	.	2.r	.	2.r	.	2.r	2.r	2.r
8r	.	.	8r	.	8r	.	8b-/	.	8dd-\	.	.	.	.	.	.	.	.	.	.	.	.	.	.	.	.	.	.	.	.	.	.	.	.	.	.	.	.	.	.	.
8F\	.	.	8F\	.	8f\	.	8r	.	8r	.	4F\)	.	.	.	.	.	.	.	.	.	.	.	.	.	.	.	.	.	.	.	.	.	.	.	.	.	.	.	.	.
8r	.	.	8r	.	8r	.	8b-/	.	8dd-\	.	.	.	.	.	.	.	.	.	.	.	.	.	.	.	.	.	.	.	.	.	.	.	.	.	.	.	.	.	.	.
8En\	.	.	8En\	.	8en\	.	8r	.	8r	.	4En\	-ta	.	4B-\	-ta	4b-\	-ta	.	4dd-\	-ta	.	.	.	.	.	.	.	.	.	.	.	.	.	.	.	.	.	.	.	.
8r	.	.	8r	.	8r	.	8b-/	.	8dd-\	.	.	.	.	.	.	.	.	.	.	.	.	.	.	.	.	.	.	.	.	.	.	.	.	.	.	.	.	.	.	.
=13	=13	=13	=13	=13	=13	=13	=13	=13	=13	=13	=13	=13	=13	=13	=13	=13	=13	=13	=13	=13	=13	=13	=13	=13	=13	=13	=13	=13	=13	=13	=13	=13	=13	=13	=13	=13	=13	=13	=13	=13
!LO:LB:g=original	!LO:LB:g=original	!	!	!	!LO:LB:g=original	!	!	!	!LO:LB:g=original	!	!	!	!	!	!	!	!	!	!	!	!	!	!	!	!	!	!	!LO:N:vis=0	!	!	!	!	!	!	!	!	!	!	!	!
8F\	2.r	.	8F\	.	8f\	.	8r	.	8r	.	4F\	mun-	.	4F/	mun-	4b-\	mun-	.	4dd-\	mun-	.	2.r	2.r	2.r	2.r	2.r	.	1.r	.	2.r	.	2.r	.	2.r	.	2.r	.	2.r	2.r	2.r
8r	.	.	8r	.	8r	.	8b-/	.	8dd-\	.	.	.	.	.	.	.	.	.	.	.	.	.	.	.	.	.	.	.	.	.	.	.	.	.	.	.	.	.	.	.
8F\	.	.	8F\	.	8f\	.	8r	.	8r	.	8F\	-di	.	8F/	-di	8an\	-di	.	8cc\	-di	.	.	.	.	.	.	.	.	.	.	.	.	.	.	.	.	.	.	.	.
8r	.	.	8r	.	8r	.	8an/	.	8cc\	.	8r	.	.	8r	.	8r	.	.	8r	.	.	.	.	.	.	.	.	.	.	.	.	.	.	.	.	.	.	.	.	.
8E-X\	.	.	8E-X\	.	8e-X\	.	8r	.	8r	.	8.E-\	mi-	.	8.An/	mi-	8.f\	mi-	.	8.cc\	mi-	.	.	.	.	.	.	.	.	.	.	.	.	.	.	.	.	.	.	.	.
8r	.	.	8r	.	8r	.	8a/	.	8cc\	.	.	.	.	.	.	.	.	.	.	.	.	.	.	.	.	.	.	.	.	.	.	.	.	.	.	.	.	.	.	.
.	.	.	.	.	.	.	.	.	.	.	16E-\	-se-	.	16A/	-se-	16f\	-se-	.	16cc\	-se-	.	.	.	.	.	.	.	.	.	.	.	.	.	.	.	.	.	.	.	.
=14	=14	=14	=14	=14	=14	=14	=14	=14	=14	=14	=14	=14	=14	=14	=14	=14	=14	=14	=14	=14	=14	=14	=14	=14	=14	=14	=14	=14	=14	=14	=14	=14	=14	=14	=14	=14	=14	=14	=14	=14
8Dn\	2.r	.	8Dn\	.	8dn\	.	8r	.	8r	.	4Dn\	-re-	.	4B-\	-re-	4f\	-re-	.	4b-\	-re-	.	2.r	2.r	2.r	2.r	2.r	.	.	.	2.r	.	2.r	.	2.r	.	2.r	.	2.r	2.r	2.r
8r	.	.	8r	.	8r	.	8f/	.	8b-\	.	.	.	.	.	.	.	.	.	.	.	.	.	.	.	.	.	.	.	.	.	.	.	.	.	.	.	.	.	.	.
8D\	.	.	8D\	.	8d\	.	8r	.	8r	.	8D\	-re	.	8B-\	-re	8f\	-re	.	8b-\	-re	.	.	.	.	.	.	.	.	.	.	.	.	.	.	.	.	.	.	.	.
8r	.	.	8r	.	8r	.	8f/	.	8b-\	.	8r	.	.	8r	.	8r	.	.	8r	.	.	.	.	.	.	.	.	.	.	.	.	.	.	.	.	.	.	.	.	.
8D-X^<\	.	.	8D-X\	.	8d-X^<\	.	8r	.	8r	.	8.D-X\	mi-	.	8.B-^\	mi-	8.gn^\	mi-	.	8.een^\	mi-	.	.	.	.	.	.	.	.	.	.	.	.	.	.	.	.	.	.	.	.
8r	.	.	8r	.	8r	.	8b- 8gn^/	.	8een^<\	.	.	.	.	.	.	.	.	.	.	.	.	.	.	.	.	.	.	.	.	.	.	.	.	.	.	.	.	.	.	.
.	.	.	.	.	.	.	.	.	.	.	16D-\	-se-	.	16B-\	-se-	16g\	-se-	.	16ee\	-se-	.	.	.	.	.	.	.	.	.	.	.	.	.	.	.	.	.	.	.	.
=15	=15	=15	=15	=15	=15	=15	=15	=15	=15	=15	=15	=15	=15	=15	=15	=15	=15	=15	=15	=15	=15	=15	=15	=15	=15	=15	=15	=15	=15	=15	=15	=15	=15	=15	=15	=15	=15	=15	=15	=15
!	!	!	!	!	!	!	!	!	!	!	!LO:LB:g=original	!	!	!	!	!	!	!	!	!	!	!	!	!	!	!	!	!	!	!	!	!	!	!	!	!	!	!	!	!
8C/	2.r	.	8C/	.	8c\	.	8r	.	8r	.	4.C/	-re-	.	4.An\	-re-	4.an\	-re-	.	4.ff\	-re-	.	2.r	2.r	2.r	2.r	2.r	.	2.r	.	2.r	.	2.r	.	2.r	.	2.r	.	2.r	2.r	2.r
8r	.	.	8r	.	8r	.	8an/	.	8ff\	.	.	.	.	.	.	.	.	.	.	.	.	.	.	.	.	.	.	.	.	.	.	.	.	.	.	.	.	.	.	.
8C/	.	.	8C/	.	8c\	.	8r	.	8r	.	.	.	.	.	.	.	.	.	.	.	.	.	.	.	.	.	.	.	.	.	.	.	.	.	.	.	.	.	.	.
8r	.	.	8r	.	8r	.	8a/	.	8ff\	.	8C/	-re	.	8A\	-re	8a\	-re	.	8ff\	-re	.	.	.	.	.	.	.	.	.	.	.	.	.	.	.	.	.	.	.	.
8C/	.	.	8C/	.	8c\	.	8r	.	8r	.	4C/	no-	.	4B-\	no-	4gn\	no-	.	4een\	no-	.	.	.	.	.	.	.	.	.	.	.	.	.	.	.	.	.	.	.	.
8r	.	.	8r	.	8r	.	8b- 8gn/	.	(8een\	.	.	.	.	.	.	.	.	.	.	.	.	.	.	.	.	.	.	.	.	.	.	.	.	.	.	.	.	.	.	.
=16	=16	=16	=16	=16	=16	=16	=16	=16	=16	=16	=16	=16	=16	=16	=16	=16	=16	=16	=16	=16	=16	=16	=16	=16	=16	=16	=16	=16	=16	=16	=16	=16	=16	=16	=16	=16	=16	=16	=16	=16
!LO:TX:b:t=P:problem=początek ligatury w dół, potem w górę	!	!LO:DY:b=2	!	!LO:DY:b:rj	!	!LO:DY:b:rj	!	!LO:DY:b	!	!LO:DY:b	!	!	!	!LO:LB:g=original	!	!	!	!	!LO:LB:g=original	!	!	!	!	!	!	!	!	!LO:TX:b:Bi:t=Tutti.	!	!	!	!	!	!	!	!	!	!	!	!
[2.FF/	4an 4f/	f	[2.FF/	f	[2.F/	f	4an 4f/	f	4ff\)	f	4F\	-bis	.	4An\	-bis	4f\	-bis	.	4ff\	-bis	.	2.r	2.FF/	2.F/	[>2.f/	[2.f\	f	[2.f\	.	[2.F\	f	[2.F\	f	4f/	f	4a\	f	4an/	4ff\	2.r
.	4b- 4gn/	.	.	.	.	.	4b- 4gn/	.	(4een\	.	4r	.	.	4r	.	4r	.	.	4r	.	.	.	.	.	.	.	.	.	.	.	.	.	.	4g/	.	4b-\	.	4gn/	4een\	.
.	4a 4f/	.	.	.	.	.	4a 4f/	.	4ff\)	.	4r	.	.	4r	.	4r	.	.	4r	.	.	.	.	.	.	.	.	.	.	.	.	.	.	4f/	.	4a\	.	4a/	4ff\	.
=17	=17	=17	=17	=17	=17	=17	=17	=17	=17	=17	=17	=17	=17	=17	=17	=17	=17	=17	=17	=17	=17	=17	=17	=17	=17	=17	=17	=17	=17	=17	=17	=17	=17	=17	=17	=17	=17	=17	=17	=17
!LO:LB:g=original	!LO:LB:g=original	!	!LO:LB:g=original	!	!	!	!LO:LB:g=original	!	!	!	!	!	!	!	!	!LO:LB:g=original	!	!	!	!	!	!	!	!	!	!	!	!	!	!	!	!	!	!	!	!	!	!	!	!
!	!	!	!	!	!	!	!	!	!	!	!LO:TX:a:t=3.	!	!	!LO:TX:a:t=6.	!	!LO:TX:a:t=14.	!	!	!LO:TX:a:t=14.	!	!	!	!	!	!	!	!	!	!	!	!	!	!	!	!	!	!	!	!	!
!	!	!	!	!	!	!	!	!	!	!	!LO:N:vis=0	!	!	!LO:N:vis=00	!	!	!	!	!	!	!	!	!	!	!	!	!	!	!	!	!	!	!	!	!	!	!	!	!	!
2.FF/_	4.b- 4.gn/	.	2.FF/_	.	2.F/_	.	2.b- 2.gn/	.	(16ccc\LL	.	1.r	.	.	0.r	.	2.r	.	.	2.r	.	.	2.r	2.FF/	2.F/	2.f/_>	2.f\_	.	2.f\_	.	2.F\_	.	2.F\_	.	2.g/	.	2.b-\	.	2.gn/	2.een\	4r
.	.	.	.	.	.	.	.	.	16bb-\	.	.	.	.	.	.	.	.	.	.	.	.	.	.	.	.	.	.	.	.	.	.	.	.	.	.	.	.	.	.	.
.	.	.	.	.	.	.	.	.	16ggn\	.	.	.	.	.	.	.	.	.	.	.	.	.	.	.	.	.	.	.	.	.	.	.	.	.	.	.	.	.	.	.
.	.	.	.	.	.	.	.	.	16een\JJ	.	.	.	.	.	.	.	.	.	.	.	.	.	.	.	.	.	.	.	.	.	.	.	.	.	.	.	.	.	.	.
.	.	.	.	.	.	.	.	.	4cc\)	.	.	.	.	.	.	.	.	.	.	.	.	.	.	.	.	.	.	.	.	.	.	.	.	.	.	.	.	.	.	8r
.	4g 4en/	.	.	.	.	.	.	.	.	.	.	.	.	.	.	.	.	.	.	.	.	.	.	.	.	.	.	.	.	.	.	.	.	.	.	.	.	.	.	(4een\
.	.	.	.	.	.	.	.	.	4r	.	.	.	.	.	.	.	.	.	.	.	.	.	.	.	.	.	.	.	.	.	.	.	.	.	.	.	.	.	.	.
.	16anLL 16f/	.	.	.	.	.	.	.	.	.	.	.	.	.	.	.	.	.	.	.	.	.	.	.	.	.	.	.	.	.	.	.	.	.	.	.	.	.	.	16ff\LL
.	16b-JJ 16g/	.	.	.	.	.	.	.	.	.	.	.	.	.	.	.	.	.	.	.	.	.	.	.	.	.	.	.	.	.	.	.	.	.	.	.	.	.	.	16ggn\JJ
=18	=18	=18	=18	=18	=18	=18	=18	=18	=18	=18	=18	=18	=18	=18	=18	=18	=18	=18	=18	=18	=18	=18	=18	=18	=18	=18	=18	=18	=18	=18	=18	=18	=18	=18	=18	=18	=18	=18	=18	=18
!	!	!	!	!	!	!	!	!	!LO:LB:g=original	!	!	!	!	!	!	!	!	!	!	!	!	!	!	!	!	!	!	!LO:LB:g=original	!	!	!	!	!	!	!	!	!	!	!	!
2.FF/_	4an 4f/	.	2.FF/_	.	2.F/_	.	4an 4f/	.	(4ff\	.	.	.	.	.	.	2.r	.	.	2.r	.	.	2.r	2.FF/	2.F/	2.f/_>	2.f\_	.	2.f\_	.	2.F\_	.	2.F\_	.	4f/	.	4a\	.	4an/	4ff\	8ff\)
.	.	.	.	.	.	.	.	.	.	.	.	.	.	.	.	.	.	.	.	.	.	.	.	.	.	.	.	.	.	.	.	.	.	.	.	.	.	.	.	8r
.	4b- 4gn/	.	.	.	.	.	4b- 4gn/	.	4een\	.	.	.	.	.	.	.	.	.	.	.	.	.	.	.	.	.	.	.	.	.	.	.	.	4g/	.	4b-\	.	4gn/	4een\	4r
.	4a 4f/	.	.	.	.	.	4a 4f/	.	4ff\)	.	.	.	.	.	.	.	.	.	.	.	.	.	.	.	.	.	.	.	.	.	.	.	.	4f/	.	4a\	.	4a/	4ff\	4r
=19	=19	=19	=19	=19	=19	=19	=19	=19	=19	=19	=19	=19	=19	=19	=19	=19	=19	=19	=19	=19	=19	=19	=19	=19	=19	=19	=19	=19	=19	=19	=19	=19	=19	=19	=19	=19	=19	=19	=19	=19
2.FF/_	4.b- 4.gn/	.	2.FF/]	.	2.F/_	.	2.b- 2.gn/	.	(16ccc\LL	.	2.r	.	.	.	.	2.r	.	.	2.r	.	.	2.r	2.FF/	2.F/	2.f/_>	2.f\_	.	2.f\_	.	2.F\_	.	2.F\_	.	2.g/	.	2.b-\	.	2.gn/	2.een\	4r
.	.	.	.	.	.	.	.	.	16bb-\	.	.	.	.	.	.	.	.	.	.	.	.	.	.	.	.	.	.	.	.	.	.	.	.	.	.	.	.	.	.	.
.	.	.	.	.	.	.	.	.	16ggn\	.	.	.	.	.	.	.	.	.	.	.	.	.	.	.	.	.	.	.	.	.	.	.	.	.	.	.	.	.	.	.
.	.	.	.	.	.	.	.	.	16een\JJ	.	.	.	.	.	.	.	.	.	.	.	.	.	.	.	.	.	.	.	.	.	.	.	.	.	.	.	.	.	.	.
.	.	.	.	.	.	.	.	.	4cc\)	.	.	.	.	.	.	.	.	.	.	.	.	.	.	.	.	.	.	.	.	.	.	.	.	.	.	.	.	.	.	8r
.	4g 4en/	.	.	.	.	.	.	.	.	.	.	.	.	.	.	.	.	.	.	.	.	.	.	.	.	.	.	.	.	.	.	.	.	.	.	.	.	.	.	(4een\
.	.	.	.	.	.	.	.	.	4r	.	.	.	.	.	.	.	.	.	.	.	.	.	.	.	.	.	.	.	.	.	.	.	.	.	.	.	.	.	.	.
.	16a-XLL 16f/	.	.	.	.	.	.	.	.	.	.	.	.	.	.	.	.	.	.	.	.	.	.	.	.	.	.	.	.	.	.	.	.	.	.	.	.	.	.	16ff\LL
.	16b-JJ 16g/	.	.	.	.	.	.	.	.	.	.	.	.	.	.	.	.	.	.	.	.	.	.	.	.	.	.	.	.	.	.	.	.	.	.	.	.	.	.	16ggn\JJ
=20	=20	=20	=20	=20	=20	=20	=20	=20	=20	=20	=20	=20	=20	=20	=20	=20	=20	=20	=20	=20	=20	=20	=20	=20	=20	=20	=20	=20	=20	=20	=20	=20	=20	=20	=20	=20	=20	=20	=20	=20
!	!	!LO:DY:b=2	!	!LO:DY:b:t=fp.	!	!LO:DY:b	!	!LO:DY:b	!	!LO:DY:b	!LO:TX:a:i:t=Solo.	!	!	!	!	!	!	!	!	!	!	!	!	!	!	!	!	!LO:LB:g=original	!	!LO:LB:g=original	!	!LO:LB:g=original	!LO:LB:g=original	!	!	!	!	!	!	!
(4FF/]	8a-X 8f/	fp	(4FF/	fp	4F/]	fp	(4a-X\	p	(4ff\	p	(4F\	A-	.	.	.	2.r	.	.	2.r	.	.	2.r	4FF/	8F/	8f/]	8f\]	.	8f\]	.	8F\]	.	8F\]	.	8f/	.	8a-X\	.	8a-X/	8ff\	8ff\)
.	8r	.	.	.	.	.	.	.	.	.	.	.	.	.	.	.	.	.	.	.	.	.	.	8r	8r	8r	.	8r	.	8r	.	8r	.	8r	.	8r	.	8r	8r	8r
4GGn/	4r	.	4GGn/	.	4Gn/	.	4b-\	.	4een\	.	4En\)	.	.	.	.	.	.	.	.	.	.	.	4r	4r	4r	4r	.	4r	.	4r	.	4r	.	4r	.	4r	.	4r	4r	4r
4AA-/)	4r	.	4AA-/	.	4A-X/	.	4cc\)	.	4ff\)	.	4F\	-gnus	.	.	.	.	.	.	.	.	.	.	4r	4r	4r	4r	.	4r	.	4r	.	4r	.	4r	.	4r	.	4r	4r	4r
=21	=21	=21	=21	=21	=21	=21	=21	=21	=21	=21	=21	=21	=21	=21	=21	=21	=21	=21	=21	=21	=21	=21	=21	=21	=21	=21	=21	=21	=21	=21	=21	=21	=21	=21	=21	=21	=21	=21	=21	=21
!LO:LB:g=original	!LO:LB:g=original	!	!	!	!LO:LB:g=original	!	!	!	!	!	!	!	!	!	!	!	!	!	!	!	!	!	!	!	!LO:LB:g=original	!LO:LB:g=original	!	!	!	!	!	!LO:LB:g=original	!	!	!	!	!	!	!	!LO:LB:g=original
!	!	!	!	!	!	!	!	!	!	!	!	!	!	!	!	!	!	!	!	!	!	!	!LO:TX:a:t=10.	!LO:TX:a:t=18.	!LO:TX:a:t=18.	!LO:TX:a:t=2.	!	!LO:TX:a:t=2.	!	!LO:TX:a:t=10.	!	!LO:TX:a:t=2.	!	!LO:TX:a:t=2.	!	!LO:TX:a:t=2.	!	!LO:TX:a:t=10.	!LO:TX:a:t=10.	!LO:TX:a:t=10.
!	!	!	!	!	!	!	!	!	!	!	!	!	!	!LO:N:vis=0	!	!	!	!	!	!	!	!	!LO:N:vis=00	!	!	!LO:N:vis=0	!	!LO:N:vis=0	!	!LO:N:vis=00	!	!LO:N:vis=0	!	!LO:N:vis=0	!	!LO:N:vis=0	!	!LO:N:vis=00	!LO:N:vis=00	!
(8.BB-/L	2.r	.	8.BB-/L	.	8.B-/L	.	(8.dd-X\L	.	(8.dd-X\L	.	(8.d-X\L	De-	.	1.r	.	2.r	.	.	2.r	.	.	2.r	0.r	2.r	2.r	1.r	.	1.r	.	0.r	.	1.r	.	1.r	.	1.r	.	0.r	0.r	2.r
16C/Jk	.	.	16C/Jk	.	16c/Jk	.	16ee-\Jk	.	16cc\Jk	.	16c\Jk)	.	.	.	.	.	.	.	.	.	.	.	.	.	.	.	.	.	.	.	.	.	.	.	.	.	.	.	.	.
4.D-/)	.	.	4.D-/)	.	4.d-X\	.	4ff\)	.	4.b-\	.	4.B-\	-i	.	.	.	.	.	.	.	.	.	.	.	.	.	.	.	.	.	.	.	.	.	.	.	.	.	.	.	.
.	.	.	.	.	.	.	4f/	.	.	.	.	.	.	.	.	.	.	.	.	.	.	.	.	.	.	.	.	.	.	.	.	.	.	.	.	.	.	.	.	.
(<8Dn/	.	.	(<8Dn/	.	8c-X\	.	.	.	8a-X/)	.	8A-\	qui	.	.	.	.	.	.	.	.	.	.	.	.	.	.	.	.	.	.	.	.	.	.	.	.	.	.	.	.
=22	=22	=22	=22	=22	=22	=22	=22	=22	=22	=22	=22	=22	=22	=22	=22	=22	=22	=22	=22	=22	=22	=22	=22	=22	=22	=22	=22	=22	=22	=22	=22	=22	=22	=22	=22	=22	=22	=22	=22	=22
!	!	!	!	!	!	!	!	!	!	!	!LO:LB:g=original	!	!	!	!	!	!	!	!	!	!	!	!	!	!	!	!	!	!	!	!	!	!	!	!	!	!	!	!	!
8E-\)	2.r	.	8E-\)	.	16r	.	16r	.	16r	.	(16A-\LL	tol-	.	.	.	2.r	.	.	2.r	.	.	2.r	.	2.r	2.r	.	.	.	.	.	.	.	.	.	.	.	.	.	.	2.r
.	.	.	.	.	16B-/LL	.	16e-LL 16d-/	.	16gn/LL	.	16Gn\JJ)	.	.	.	.	.	.	.	.	.	.	.	.	.	.	.	.	.	.	.	.	.	.	.	.	.	.	.	.	.
8r	.	.	8r	.	16B-/	.	16e- 16d-/	.	16g/	.	16F\	-lis	.	.	.	.	.	.	.	.	.	.	.	.	.	.	.	.	.	.	.	.	.	.	.	.	.	.	.	.
.	.	.	.	.	16B-/JJ	.	16e-JJ 16d-/	.	16g/JJ	.	16E-\	pec-	.	.	.	.	.	.	.	.	.	.	.	.	.	.	.	.	.	.	.	.	.	.	.	.	.	.	.	.
8E-\	.	.	8E-\	.	16r	.	16r	.	16r	.	4.E-\	-ca-	.	.	.	.	.	.	.	.	.	.	.	.	.	.	.	.	.	.	.	.	.	.	.	.	.	.	.	.
.	.	.	.	.	16B-/LL	.	16e-LL 16d-/	.	16g/LL	.	.	.	.	.	.	.	.	.	.	.	.	.	.	.	.	.	.	.	.	.	.	.	.	.	.	.	.	.	.	.
8r	.	.	8r	.	16B-/	.	16e- 16d-/	.	16g/	.	.	.	.	.	.	.	.	.	.	.	.	.	.	.	.	.	.	.	.	.	.	.	.	.	.	.	.	.	.	.
.	.	.	.	.	16B-/JJ	.	16e-JJ 16d-/	.	16g/JJ	.	.	.	.	.	.	.	.	.	.	.	.	.	.	.	.	.	.	.	.	.	.	.	.	.	.	.	.	.	.	.
8E-\	.	.	8E-\	.	16r	.	16r	.	16r	.	.	.	.	.	.	.	.	.	.	.	.	.	.	.	.	.	.	.	.	.	.	.	.	.	.	.	.	.	.	.
.	.	.	.	.	16B-/LL	.	16e-LL 16d-/	.	16g/LL	.	.	.	.	.	.	.	.	.	.	.	.	.	.	.	.	.	.	.	.	.	.	.	.	.	.	.	.	.	.	.
8r	.	.	8r	.	16B-/	.	16e- 16d-/	.	16g/	.	(16F\LL	-ta	.	.	.	.	.	.	.	.	.	.	.	.	.	.	.	.	.	.	.	.	.	.	.	.	.	.	.	.
!	!	!	!	!	!	!	!	!	!	!	!	!	!	!	!	!	!	!	!	!	!	!	!	!	!	!	!	!	!	!	!	!	!	!LO:TX:b:t=V&colon; S&colon;	!	!	!	!	!	!
.	.	.	.	.	16B-/JJ	.	16e-JJ 16d-/	.	16g/JJ	.	16G\JJ)	.	.	.	.	.	.	.	.	.	.	.	.	.	.	.	.	.	.	.	.	.	.	.	.	.	.	.	.	.
=23	=23	=23	=23	=23	=23	=23	=23	=23	=23	=23	=23	=23	=23	=23	=23	=23	=23	=23	=23	=23	=23	=23	=23	=23	=23	=23	=23	=23	=23	=23	=23	=23	=23	=23	=23	=23	=23	=23	=23	=23
!	!	!	!	!	!	!	!LO:LB:g=original	!	!LO:LB:g=original	!	!	!	!	!	!	!	!	!	!	!	!	!	!	!	!	!	!LO:DY:t=pp.	!	!LO:DY:t=pp.	!	!	!	!	!LO:PB:g=original	!LO:DY:t=p	!	!	!	!	!
8AA-/	2.r	.	8AA-/	.	8A-/	.	16r	.	16r	.	4A-\	mun-	.	4r	.	2.r	.	.	2.r	.	.	2.r	.	2.r	2.r	[2.e-\	pp	[2.e-\	pp	.	.	2.A-\	p	2.a-\	p	2.cc\	p	.	.	2.r
.	.	.	.	.	.	.	16e-LL 16c/	.	16a-'/LL	.	.	.	.	.	.	.	.	.	.	.	.	.	.	.	.	.	.	.	.	.	.	.	.	.	.	.	.	.	.	.
8r	.	.	8r	.	8r	.	16e- 16c/	.	(16a-/	.	.	.	.	.	.	.	.	.	.	.	.	.	.	.	.	.	.	.	.	.	.	.	.	.	.	.	.	.	.	.
.	.	.	.	.	.	.	16e-JJ 16c/	.	16e-/JJ)	.	.	.	.	.	.	.	.	.	.	.	.	.	.	.	.	.	.	.	.	.	.	.	.	.	.	.	.	.	.	.
8A-\	.	.	8A-\	.	8A-/	.	16r	.	16r	.	8A-\	-di	.	8r	.	.	.	.	.	.	.	.	.	.	.	.	.	.	.	.	.	.	.	.	.	.	.	.	.	.
.	.	.	.	.	.	.	16e-LL 16c/	.	16a-'/LL	.	.	.	.	.	.	.	.	.	.	.	.	.	.	.	.	.	.	.	.	.	.	.	.	.	.	.	.	.	.	.
8r	.	.	8r	.	8r	.	16e- 16c/	.	(16a-/	.	8r	.	.	4c\	mi-	.	.	.	.	.	.	.	.	.	.	.	.	.	.	.	.	.	.	.	.	.	.	.	.	.
.	.	.	.	.	.	.	16e-JJ 16c/	.	16e-/JJ)	.	.	.	.	.	.	.	.	.	.	.	.	.	.	.	.	.	.	.	.	.	.	.	.	.	.	.	.	.	.	.
8A-\	.	.	8A-\	.	8A-/	.	16r	.	16r	.	4r	.	.	.	.	.	.	.	.	.	.	.	.	.	.	.	.	.	.	.	.	.	.	.	.	.	.	.	.	.
.	.	.	.	.	.	.	16e-LL 16c/	.	16cc'/LL	.	.	.	.	.	.	.	.	.	.	.	.	.	.	.	.	.	.	.	.	.	.	.	.	.	.	.	.	.	.	.
8r	.	.	8r	.	8r	.	16e- 16c/	.	(16cc/	.	.	.	.	(16d-\LL	-se-	.	.	.	.	.	.	.	.	.	.	.	.	.	.	.	.	.	.	.	.	.	.	.	.	.
.	.	.	.	.	.	.	16e-JJ 16c/	.	16e-/JJ)	.	.	.	.	16e-\JJ)	.	.	.	.	.	.	.	.	.	.	.	.	.	.	.	.	.	.	.	.	.	.	.	.	.	.
=24	=24	=24	=24	=24	=24	=24	=24	=24	=24	=24	=24	=24	=24	=24	=24	=24	=24	=24	=24	=24	=24	=24	=24	=24	=24	=24	=24	=24	=24	=24	=24	=24	=24	=24	=24	=24	=24	=24	=24	=24
!	!	!	!LO:LB:g=original	!	!	!	!	!	!	!	!	!	!	!	!	!	!	!	!	!	!	!	!	!	!	!	!	!	!	!	!	!	!	!	!	!	!	!	!	!
8Gn\	2.r	.	8Gn\	.	8Gn/	.	16r	.	16r	.	4r	.	.	(16e-\LL	-re-	2.r	.	.	2.r	.	.	2.r	.	2.r	2.r	2.e-\_	.	2.e-\_	.	.	.	2.Gn\	.	2.b-\	.	2.dd-X\	.	.	.	2.r
.	.	.	.	.	.	.	16e-LL 16d-/	.	16b-'/LL	.	.	.	.	16d-\	.	.	.	.	.	.	.	.	.	.	.	.	.	.	.	.	.	.	.	.	.	.	.	.	.	.
8r	.	.	8r	.	8r	.	16e- 16d-/	.	(16b-/	.	.	.	.	16B-\	.	.	.	.	.	.	.	.	.	.	.	.	.	.	.	.	.	.	.	.	.	.	.	.	.	.
.	.	.	.	.	.	.	16e-JJ 16d-/	.	16e-/JJ)	.	.	.	.	16Gn\JJ)	.	.	.	.	.	.	.	.	.	.	.	.	.	.	.	.	.	.	.	.	.	.	.	.	.	.
8GGn/	.	.	8GGn/	.	8G/	.	16r	.	16r	.	8r	.	.	4E-/	-re	.	.	.	.	.	.	.	.	.	.	.	.	.	.	.	.	.	.	.	.	.	.	.	.	.
.	.	.	.	.	.	.	16e-LL 16d-/	.	16b-'/LL	.	.	.	.	.	.	.	.	.	.	.	.	.	.	.	.	.	.	.	.	.	.	.	.	.	.	.	.	.	.	.
8r	.	.	8r	.	8r	.	16e- 16d-/	.	(16b-/	.	4B-\	mi-	.	.	.	.	.	.	.	.	.	.	.	.	.	.	.	.	.	.	.	.	.	.	.	.	.	.	.	.
.	.	.	.	.	.	.	16e-JJ 16d-/	.	16e-/JJ)	.	.	.	.	.	.	.	.	.	.	.	.	.	.	.	.	.	.	.	.	.	.	.	.	.	.	.	.	.	.	.
8GG/	.	.	8GG/	.	8G/	.	16r	.	16r	.	.	.	.	4r	.	.	.	.	.	.	.	.	.	.	.	.	.	.	.	.	.	.	.	.	.	.	.	.	.	.
.	.	.	.	.	.	.	16e-LL 16B-/	.	16dd-'/LL	.	.	.	.	.	.	.	.	.	.	.	.	.	.	.	.	.	.	.	.	.	.	.	.	.	.	.	.	.	.	.
8r	.	.	8r	.	8r	.	16e- 16B-/	.	(16dd-/	.	(16c\LL	-se-	.	.	.	.	.	.	.	.	.	.	.	.	.	.	.	.	.	.	.	.	.	.	.	.	.	.	.	.
.	.	.	.	.	.	.	16e-JJ 16B-/	.	16e-/JJ)	.	16d-\JJ)	.	.	.	.	.	.	.	.	.	.	.	.	.	.	.	.	.	.	.	.	.	.	.	.	.	.	.	.	.
=25	=25	=25	=25	=25	=25	=25	=25	=25	=25	=25	=25	=25	=25	=25	=25	=25	=25	=25	=25	=25	=25	=25	=25	=25	=25	=25	=25	=25	=25	=25	=25	=25	=25	=25	=25	=25	=25	=25	=25	=25
!LO:LB:g=original	!LO:LB:g=original	!	!	!	!	!	!	!	!	!	!	!	!	!	!	!	!	!	!	!	!	!	!LO:N:vis=00	!	!	!	!	!	!	!LO:N:vis=00	!	!	!	!	!	!	!	!LO:N:vis=00	!LO:N:vis=00	!
8AA-/	2.r	.	8AA-/	.	8A-/	.	16r	.	16r	.	(16c\LL	-re-	.	4r	.	2.r	.	.	2.r	.	.	2.r	0.r	2.r	2.r	2.e-\_	.	2.e-\_	.	0.r	.	2.A-\	.	2.a-\	.	2.cc\	.	0.r	0.r	2.r
.	.	.	.	.	.	.	16e-LL 16c/	.	16a-'/LL	.	16A-\	.	.	.	.	.	.	.	.	.	.	.	.	.	.	.	.	.	.	.	.	.	.	.	.	.	.	.	.	.
8r	.	.	8r	.	8r	.	16e- 16c/	.	(16a-/	.	16E-\	.	.	.	.	.	.	.	.	.	.	.	.	.	.	.	.	.	.	.	.	.	.	.	.	.	.	.	.	.
.	.	.	.	.	.	.	16e-JJ 16c/	.	16e-/JJ)	.	16C\JJ)	.	.	.	.	.	.	.	.	.	.	.	.	.	.	.	.	.	.	.	.	.	.	.	.	.	.	.	.	.
8A-\	.	.	8A-\	.	8A-/	.	16r	.	16r	.	4AA-/	-re	.	8r	.	.	.	.	.	.	.	.	.	.	.	.	.	.	.	.	.	.	.	.	.	.	.	.	.	.
.	.	.	.	.	.	.	16e-LL 16c/	.	16a-'/LL	.	.	.	.	.	.	.	.	.	.	.	.	.	.	.	.	.	.	.	.	.	.	.	.	.	.	.	.	.	.	.
!	!	!	!	!	!	!	!	!	!	!	!	!	!	!LO:TX:a:i:t=Solo.	!	!	!	!	!	!	!	!	!	!	!	!	!	!	!	!	!	!	!	!	!	!	!	!	!	!
8r	.	.	8r	.	8r	.	16e- 16c/	.	(16a-/	.	.	.	.	4c\	mi-	.	.	.	.	.	.	.	.	.	.	.	.	.	.	.	.	.	.	.	.	.	.	.	.	.
.	.	.	.	.	.	.	16e-JJ 16c/	.	16e-/JJ)	.	.	.	.	.	.	.	.	.	.	.	.	.	.	.	.	.	.	.	.	.	.	.	.	.	.	.	.	.	.	.
8A-\	.	.	8A-\	.	8A-/	.	16r	.	16r	.	4r	.	.	.	.	.	.	.	.	.	.	.	.	.	.	.	.	.	.	.	.	.	.	.	.	.	.	.	.	.
.	.	.	.	.	.	.	16e-LL 16c/	.	16cc'/LL	.	.	.	.	.	.	.	.	.	.	.	.	.	.	.	.	.	.	.	.	.	.	.	.	.	.	.	.	.	.	.
8r	.	.	8r	.	8r	.	16e- 16c/	.	(16cc/	.	.	.	.	(16d-\LL	-se-	.	.	.	.	.	.	.	.	.	.	.	.	.	.	.	.	.	.	.	.	.	.	.	.	.
.	.	.	.	.	.	.	16e-JJ 16c/	.	16e-/JJ)	.	.	.	.	16e-\JJ)	.	.	.	.	.	.	.	.	.	.	.	.	.	.	.	.	.	.	.	.	.	.	.	.	.	.
=26	=26	=26	=26	=26	=26	=26	=26	=26	=26	=26	=26	=26	=26	=26	=26	=26	=26	=26	=26	=26	=26	=26	=26	=26	=26	=26	=26	=26	=26	=26	=26	=26	=26	=26	=26	=26	=26	=26	=26	=26
!	!	!	!	!	!LO:LB:g=original	!	!LO:LB:g=original	!	!	!	!LO:LB:g=original	!	!	!	!	!	!	!	!	!	!	!	!	!	!	!	!	!	!	!	!	!	!	!	!	!	!	!	!	!
8Gn\	2.r	.	8Gn\	.	8Gn/	.	16r	.	16r	.	4r	.	.	(16e-\LL	-re-	2.r	.	.	2.r	.	.	2.r	.	2.r	2.r	2.e-\_	.	2.e-\]	.	.	.	2.Gn\	.	2.b-\	.	2.dd-\	.	.	.	2.r
.	.	.	.	.	.	.	16e-LL 16d-/	.	16b-'/LL	.	.	.	.	16d-\	.	.	.	.	.	.	.	.	.	.	.	.	.	.	.	.	.	.	.	.	.	.	.	.	.	.
8r	.	.	8r	.	8r	.	16e- 16d-/	.	(16b-/	.	.	.	.	16B-\	.	.	.	.	.	.	.	.	.	.	.	.	.	.	.	.	.	.	.	.	.	.	.	.	.	.
.	.	.	.	.	.	.	16e-JJ 16d-/	.	16e-/JJ)	.	.	.	.	16Gn\JJ)	.	.	.	.	.	.	.	.	.	.	.	.	.	.	.	.	.	.	.	.	.	.	.	.	.	.
*	*	*	*	*	*	*	*	*	*custos:b	*	*	*	*	*	*	*	*	*	*	*	*	*	*	*	*	*	*	*	*	*	*	*	*	*	*	*	*	*	*	*
!	!	!	!	!	!	!	!	!	!LO:TX:a:t=P:problem=wszystkie custos użyte jako łamanie pięciolinii	!	!	!	!	!	!	!	!	!	!	!	!	!	!	!	!	!	!	!	!	!	!	!	!	!	!	!	!	!	!	!
!	!	!	!	!	!	!	!	!	!LO:LB:g=original	!	!	!	!	!	!	!	!	!	!	!	!	!	!	!	!	!	!	!	!	!	!	!	!	!	!	!	!	!	!	!
8GGn/	.	.	8GGn/	.	8G/	.	16r	.	16r	.	8r	.	.	4E-/	-re	.	.	.	.	.	.	.	.	.	.	.	.	.	.	.	.	.	.	.	.	.	.	.	.	.
.	.	.	.	.	.	.	16e-LL 16d-/	.	16b-'/LL	.	.	.	.	.	.	.	.	.	.	.	.	.	.	.	.	.	.	.	.	.	.	.	.	.	.	.	.	.	.	.
8r	.	.	8r	.	8r	.	16e- 16d-/	.	(16b-/	.	4B-\	mi-	.	.	.	.	.	.	.	.	.	.	.	.	.	.	.	.	.	.	.	.	.	.	.	.	.	.	.	.
.	.	.	.	.	.	.	16e-JJ 16d-/	.	16e-/JJ)	.	.	.	.	.	.	.	.	.	.	.	.	.	.	.	.	.	.	.	.	.	.	.	.	.	.	.	.	.	.	.
8GG/	.	.	8GG/	.	8G/	.	16r	.	16r	.	.	.	.	4r	.	.	.	.	.	.	.	.	.	.	.	.	.	.	.	.	.	.	.	.	.	.	.	.	.	.
.	.	.	.	.	.	.	16e-LL 16B-/	.	16dd-'/LL	.	.	.	.	.	.	.	.	.	.	.	.	.	.	.	.	.	.	.	.	.	.	.	.	.	.	.	.	.	.	.
8r	.	.	8r	.	8r	.	16e- 16B-/	.	(16dd-/	.	(16c\LL	-se-	.	.	.	.	.	.	.	.	.	.	.	.	.	.	.	.	.	.	.	.	.	.	.	.	.	.	.	.
.	.	.	.	.	.	.	16e-JJ 16B-/	.	16e-/JJ)	.	16d-\JJ)	.	.	.	.	.	.	.	.	.	.	.	.	.	.	.	.	.	.	.	.	.	.	.	.	.	.	.	.	.
=27	=27	=27	=27	=27	=27	=27	=27	=27	=27	=27	=27	=27	=27	=27	=27	=27	=27	=27	=27	=27	=27	=27	=27	=27	=27	=27	=27	=27	=27	=27	=27	=27	=27	=27	=27	=27	=27	=27	=27	=27
!	!	!	!	!	!	!	!	!	!	!	!	!	!	!LO:LB:g=original	!	!	!	!	!	!	!	!	!	!	!	!	!	!LO:LB:g=original	!	!	!	!	!	!	!	!	!	!	!	!
!	!	!	!	!	!	!	!	!	!	!	!	!	!	!LO:TX:a:t=1.	!	!	!	!	!	!	!	!	!	!	!	!	!	!	!	!	!	!	!	!	!	!	!	!	!	!
8AA-/	2.r	.	8AA-/	.	8A-/	.	16r	.	16r	.	(16c\LL	-re-	.	2.r	.	2.r	.	.	2.r	.	.	2.r	.	2.r	2.r	2.e-\]	.	2.e-\	.	.	.	2A-\	.	[2.a-\	.	2cc\	.	.	.	2.r
.	.	.	.	.	.	.	16e-LL 16c/	.	16cc'/LL	.	16A-\	.	.	.	.	.	.	.	.	.	.	.	.	.	.	.	.	.	.	.	.	.	.	.	.	.	.	.	.	.
8r	.	.	8r	.	8r	.	16e- 16c/	.	(16cc/	.	16E-\	.	.	.	.	.	.	.	.	.	.	.	.	.	.	.	.	.	.	.	.	.	.	.	.	.	.	.	.	.
.	.	.	.	.	.	.	16e-JJ 16c/	.	16e-/JJ)	.	16C\JJ)	.	.	.	.	.	.	.	.	.	.	.	.	.	.	.	.	.	.	.	.	.	.	.	.	.	.	.	.	.
8A-\	.	.	8A-\	.	8A-/	.	16r	.	16r	.	8AA-/	-re	.	.	.	.	.	.	.	.	.	.	.	.	.	.	.	.	.	.	.	.	.	.	.	.	.	.	.	.
.	.	.	.	.	.	.	16e-LL 16c/	.	16cc'/LL	.	.	.	.	.	.	.	.	.	.	.	.	.	.	.	.	.	.	.	.	.	.	.	.	.	.	.	.	.	.	.
8r	.	.	8r	.	8r	.	16e- 16c/	.	(16cc/	.	8r	.	.	.	.	.	.	.	.	.	.	.	.	.	.	.	.	.	.	.	.	.	.	.	.	.	.	.	.	.
.	.	.	.	.	.	.	16e-JJ 16c/	.	16e-/JJ)	.	.	.	.	.	.	.	.	.	.	.	.	.	.	.	.	.	.	.	.	.	.	.	.	.	.	.	.	.	.	.
8C/	.	.	8C/	.	8c/	.	16r	.	16r	.	8.A-\	mi-	.	.	.	.	.	.	.	.	.	.	.	.	.	.	.	.	.	.	.	4C/	.	.	.	4ee-\	.	.	.	.
.	.	.	.	.	.	.	16e-LL 16A-/	.	16a-'/LL	.	.	.	.	.	.	.	.	.	.	.	.	.	.	.	.	.	.	.	.	.	.	.	.	.	.	.	.	.	.	.
8r	.	.	8r	.	8r	.	16e- 16A-/	.	(16a-/	.	.	.	.	.	.	.	.	.	.	.	.	.	.	.	.	.	.	.	.	.	.	.	.	.	.	.	.	.	.	.
.	.	.	.	.	.	.	16e-JJ 16A-/	.	16g-X/JJ)	.	16G-X\	-se-	.	.	.	.	.	.	.	.	.	.	.	.	.	.	.	.	.	.	.	.	.	.	.	.	.	.	.	.
=28	=28	=28	=28	=28	=28	=28	=28	=28	=28	=28	=28	=28	=28	=28	=28	=28	=28	=28	=28	=28	=28	=28	=28	=28	=28	=28	=28	=28	=28	=28	=28	=28	=28	=28	=28	=28	=28	=28	=28	=28
8D-\	2.r	.	8D-\	.	8d-\	.	16r	.	16r	.	(8.F\L	-re-	.	4r	.	2.r	.	.	2.r	.	.	2.r	.	2.r	2.r	2.f\	.	[2.f\	.	.	.	2D-/	.	2a-\]	.	2dd-\	.	.	.	2.r
.	.	.	.	.	.	.	16fLL 16A-/	.	16f'/LL	.	.	.	.	.	.	.	.	.	.	.	.	.	.	.	.	.	.	.	.	.	.	.	.	.	.	.	.	.	.	.
8r	.	.	8r	.	8r	.	16f 16A-/	.	(16f/	.	.	.	.	.	.	.	.	.	.	.	.	.	.	.	.	.	.	.	.	.	.	.	.	.	.	.	.	.	.	.
.	.	.	.	.	.	.	16fJJ 16A-/	.	16a-/JJ)	.	16G-\Jk)	.	.	.	.	.	.	.	.	.	.	.	.	.	.	.	.	.	.	.	.	.	.	.	.	.	.	.	.	.
8d- 8D-\	.	.	8d- 8D-\	.	8d-\	.	16r	.	16r	.	4F\	-re	.	4r	.	.	.	.	.	.	.	.	.	.	.	.	.	.	.	.	.	.	.	.	.	.	.	.	.	.
.	.	.	.	.	.	.	16fLL 16A-/	.	16a-'\LL	.	.	.	.	.	.	.	.	.	.	.	.	.	.	.	.	.	.	.	.	.	.	.	.	.	.	.	.	.	.	.
8r	.	.	8r	.	8r	.	16f 16A-/	.	(16a-\	.	.	.	.	.	.	.	.	.	.	.	.	.	.	.	.	.	.	.	.	.	.	.	.	.	.	.	.	.	.	.
.	.	.	.	.	.	.	16fJJ 16A-/	.	16dd-\JJ)	.	.	.	.	.	.	.	.	.	.	.	.	.	.	.	.	.	.	.	.	.	.	.	.	.	.	.	.	.	.	.
8An 8AAn\	.	.	8An 8AAn\	.	8An/	.	16r	.	16r	.	4r	.	.	8.f\	mi-	.	.	.	.	.	.	.	.	.	.	.	.	.	.	.	.	4AAn/	.	4cc\	.	4ff\	.	.	.	.
.	.	.	.	.	.	.	16fLL 16c/	.	16ff'\LL	.	.	.	.	.	.	.	.	.	.	.	.	.	.	.	.	.	.	.	.	.	.	.	.	.	.	.	.	.	.	.
8r	.	.	8r	.	8r	.	16f 16c/	.	(16ff\	.	.	.	.	.	.	.	.	.	.	.	.	.	.	.	.	.	.	.	.	.	.	.	.	.	.	.	.	.	.	.
.	.	.	.	.	.	.	16fJJ 16c/	.	16ee-\JJ)	.	.	.	.	16e-\	-se-	.	.	.	.	.	.	.	.	.	.	.	.	.	.	.	.	.	.	.	.	.	.	.	.	.
=29	=29	=29	=29	=29	=29	=29	=29	=29	=29	=29	=29	=29	=29	=29	=29	=29	=29	=29	=29	=29	=29	=29	=29	=29	=29	=29	=29	=29	=29	=29	=29	=29	=29	=29	=29	=29	=29	=29	=29	=29
!LO:LB:g=original	!LO:LB:g=original	!	!LO:LB:g=original	!	!	!	!LO:PB:g=original	!	!	!	!	!	!	!	!	!	!	!	!	!	!	!	!	!	!	!	!	!	!	!	!	!	!	!	!	!LO:LB:g=original	!	!	!	!
!	!	!	!	!	!	!	!	!	!	!	!	!	!	!	!	!	!	!	!	!	!	!	!LO:N:vis=0	!	!	!	!	!	!	!LO:N:vis=0	!	!	!	!	!	!	!	!LO:N:vis=0	!LO:N:vis=0	!
8B- 8BB-\	2.r	.	8B- 8BB-\	.	8B-/	.	16r	.	16r	.	4r	.	.	(8.d-\L	-re-	2.r	.	.	2.r	.	.	2.r	1.r	2.r	2.r	2.B-/	.	2f\]	.	1.r	.	2BB-/	.	4dd-\	.	2ff\	.	1.r	1.r	2.r
.	.	.	.	.	.	.	16fLL 16d-/	.	16dd-'\LL	.	.	.	.	.	.	.	.	.	.	.	.	.	.	.	.	.	.	.	.	.	.	.	.	.	.	.	.	.	.	.
8r	.	.	8r	.	8r	.	16f 16d-/	.	(16dd-\	.	.	.	.	.	.	.	.	.	.	.	.	.	.	.	.	.	.	.	.	.	.	.	.	.	.	.	.	.	.	.
.	.	.	.	.	.	.	16fJJ 16d-/	.	16b-\JJ)	.	.	.	.	16e-\Jk)	.	.	.	.	.	.	.	.	.	.	.	.	.	.	.	.	.	.	.	.	.	.	.	.	.	.
8B-\	.	.	8B-\	.	8B-/	.	16r	.	16r	.	4r	.	.	4d-\	-re	.	.	.	.	.	.	.	.	.	.	.	.	.	.	.	.	.	.	4b-\	.	.	.	.	.	.
.	.	.	.	.	.	.	16fLL 16d-/	.	16dd-'\LL	.	.	.	.	.	.	.	.	.	.	.	.	.	.	.	.	.	.	.	.	.	.	.	.	.	.	.	.	.	.	.
8r	.	.	8r	.	8r	.	16f 16d-/	.	(16dd-\	.	.	.	.	.	.	.	.	.	.	.	.	.	.	.	.	.	.	.	.	.	.	.	.	.	.	.	.	.	.	.
.	.	.	.	.	.	.	16fJJ 16d-/	.	16b-\JJ)	.	.	.	.	.	.	.	.	.	.	.	.	.	.	.	.	.	.	.	.	.	.	.	.	.	.	.	.	.	.	.
8G-\	.	.	8G-\	.	8G-/	.	16r	.	16r	.	8.G-X\	mi-	.	8.e-\	mi-	.	.	.	.	.	.	.	.	.	.	.	.	4g-X\	.	.	.	4GG-/	.	4g-X/	.	4ee-\	.	.	.	.
.	.	.	.	.	.	.	16g-LL 16B-/	.	16ee-'\LL	.	.	.	.	.	.	.	.	.	.	.	.	.	.	.	.	.	.	.	.	.	.	.	.	.	.	.	.	.	.	.
8r	.	.	8r	.	8r	.	16g- 16B-/	.	(16ee-\	.	.	.	.	.	.	.	.	.	.	.	.	.	.	.	.	.	.	.	.	.	.	.	.	.	.	.	.	.	.	.
.	.	.	.	.	.	.	16g-JJ 16B-/	.	16b-\JJ)	.	16G-\	-se-	.	16e-\	-se-	.	.	.	.	.	.	.	.	.	.	.	.	.	.	.	.	.	.	.	.	.	.	.	.	.
=30	=30	=30	=30	=30	=30	=30	=30	=30	=30	=30	=30	=30	=30	=30	=30	=30	=30	=30	=30	=30	=30	=30	=30	=30	=30	=30	=30	=30	=30	=30	=30	=30	=30	=30	=30	=30	=30	=30	=30	=30
!	!	!	!	!	!	!	!	!	!LO:LB:g=original	!	!LO:LB:g=original	!	!	!	!	!	!	!	!	!	!	!	!	!	!	!LO:LB:g=original	!	!	!	!	!	!LO:LB:g=original	!	!	!	!	!	!	!	!
8A-\	2.r	.	8A-\	.	8A-/	.	16r	.	16r	.	4.F\	-re-	.	4.d-\	-re-	2.r	.	.	2.r	.	.	2.r	.	2.r	2.r	2d-X\	.	2f\	.	.	.	2.AA-/	.	2f/	.	2dd-\	.	.	.	2.r
.	.	.	.	.	.	.	16fLL 16A-/	.	16dd-'/LL	.	.	.	.	.	.	.	.	.	.	.	.	.	.	.	.	.	.	.	.	.	.	.	.	.	.	.	.	.	.	.
8r	.	.	8r	.	8r	.	16f 16A-/	.	(16dd-/	.	.	.	.	.	.	.	.	.	.	.	.	.	.	.	.	.	.	.	.	.	.	.	.	.	.	.	.	.	.	.
.	.	.	.	.	.	.	16fJJ 16A-/	.	16f/JJ)	.	.	.	.	.	.	.	.	.	.	.	.	.	.	.	.	.	.	.	.	.	.	.	.	.	.	.	.	.	.	.
8A-\	.	.	8A-\	.	8A-/	.	16r	.	16r	.	.	.	.	.	.	.	.	.	.	.	.	.	.	.	.	.	.	.	.	.	.	.	.	.	.	.	.	.	.	.
.	.	.	.	.	.	.	16fLL 16A-/	.	16dd-'/LL	.	.	.	.	.	.	.	.	.	.	.	.	.	.	.	.	.	.	.	.	.	.	.	.	.	.	.	.	.	.	.
8r	.	.	8r	.	8r	.	16f 16A-/	.	(16dd-/	.	8A-\	-re	.	8d-\	-re	.	.	.	.	.	.	.	.	.	.	.	.	.	.	.	.	.	.	.	.	.	.	.	.	.
.	.	.	.	.	.	.	16fJJ 16A-/	.	16f/JJ)	.	.	.	.	.	.	.	.	.	.	.	.	.	.	.	.	.	.	.	.	.	.	.	.	.	.	.	.	.	.	.
8A-\	.	.	8A-\	.	8A-/	.	16r	.	16r	.	(8A-\L	no-	.	(8c\L	no-	.	.	.	.	.	.	.	.	.	.	4e-\	.	4e-\	.	.	.	.	.	4e-/	.	4cc\	.	.	.	.
.	.	.	.	.	.	.	16g-LL 16A-/	.	16cc'/LL	.	.	.	.	.	.	.	.	.	.	.	.	.	.	.	.	.	.	.	.	.	.	.	.	.	.	.	.	.	.	.
8r	.	.	8r	.	8r	.	16g- 16A-/	.	(16cc/	.	16G-\L	.	.	16B-\L	.	.	.	.	.	.	.	.	.	.	.	.	.	.	.	.	.	.	.	.	.	.	.	.	.	.
.	.	.	.	.	.	.	16g-JJ 16A-/	.	16e-/JJ)	.	16E-\JJ)	.	.	16c\JJ)	.	.	.	.	.	.	.	.	.	.	.	.	.	.	.	.	.	.	.	.	.	.	.	.	.	.
=31	=31	=31	=31	=31	=31	=31	=31	=31	=31	=31	=31	=31	=31	=31	=31	=31	=31	=31	=31	=31	=31	=31	=31	=31	=31	=31	=31	=31	=31	=31	=31	=31	=31	=31	=31	=31	=31	=31	=31	=31
!	!	!	!	!	!	!	!	!	!	!LO:DY:b	!	!	!	!	!	!	!	!LO:DY:b	!	!	!LO:DY:b	!	!	!	!	!	!	!	!LO:DY:t=ff.	!LO:LB:g=original	!	!	!	!	!	!	!	!	!	!
*	*	*	*	*	*	*	*	*	*tuplet	*	*	*	*	*	*	*	*	*	*	*	*	*	*	*	*	*	*	*	*	*	*	*	*	*	*	*	*	*	*	*
*tremolo	*	*	*tremolo	*	*tremolo	*	*tremolo	*	*tremolo	*	*	*	*	*	*	*	*	*	*	*	*	*	*	*	*	*	*	*	*	*	*	*	*	*	*	*	*	*	*	*
!	!	!	!	!	!	!	!LO:TX:a:t=P:problem=złe wyświetlanie wartości rytmicznej tremolo w t.31-39	!	!LO:TX:a:t=P:problem=złe wyświetlanie wartości rytmicznej tremolo w t.31	!	!	!	!	!	!	!	!	!	!	!	!	!	!	!	!	!	!	!	!	!	!	!	!	!	!	!	!	!	!	!
!	!	!	!	!	!	!	!LO:TX:a:t=P:problem=sekstole oznaczone liczbą w tt. 31-39	!	!LO:TX:a:t=P:problem=sekstole oznaczone liczbą w t. 31	!	!LO:TX:a:i:t=Tutti	!	!	!	!	!	!	!	!	!	!	!	!	!	!	!	!	!	!	!	!	!	!	!	!	!	!	!	!	!
!	!	!LO:DY:b	!	!LO:DY:b:rj	!	!LO:DY:b:rj	!LO:N:TREM:vis=4.	!	!LO:N:TREM:vis=4.	!	!	!	!	!	!	!	!	!	!	!	!	!	!	!	!	!	!	!	!	!	!	!	!	!	!	!	!	!	!	!
8D-\L	4dd- 4f 4d-/	ff	8D-\L	f	8d-\L	f	24fLL 24A-/	ff	24dd-LL 24f/	ff	2D-/	-bis	A-	4d-\	-bis	(4f\	A-	f	(4dd-\	A-	f	2.r	2.D-\	2.r	2.r	2.d-X\	ff	2.d-X\	ff	2.D-\	ff	4d-\	ff	4f/	ff	[2.aa-\	ff	4f/	4dd-\	4ff\
.	.	.	.	.	.	.	24f 24A-/	.	24dd- 24f/	.	.	.	.	.	.	.	.	.	.	.	.	.	.	.	.	.	.	.	.	.	.	.	.	.	.	.	.	.	.	.
.	.	.	.	.	.	.	24f 24A-/	.	24dd- 24f/	.	.	.	.	.	.	.	.	.	.	.	.	.	.	.	.	.	.	.	.	.	.	.	.	.	.	.	.	.	.	.
8D-\	.	.	8D-\	.	8d-\	.	24f 24A-/	.	24dd- 24f/	.	.	.	.	.	.	.	.	.	.	.	.	.	.	.	.	.	.	.	.	.	.	.	.	.	.	.	.	.	.	.
.	.	.	.	.	.	.	24f 24A-/	.	24dd- 24f/	.	.	.	.	.	.	.	.	.	.	.	.	.	.	.	.	.	.	.	.	.	.	.	.	.	.	.	.	.	.	.
.	.	.	.	.	.	.	24fJJ 24A-/	.	24dd-JJ 24f/	.	.	.	.	.	.	.	.	.	.	.	.	.	.	.	.	.	.	.	.	.	.	.	.	.	.	.	.	.	.	.
!	!	!	!	!	!	!	!LO:N:TREM:vis=4.	!	!LO:N:TREM:vis=4.	!	!	!	!	!LO:TX:a:i:t=Tutti	!	!	!	!	!	!	!	!	!	!	!	!	!	!	!	!	!	!	!	!	!	!	!	!	!	!
8D-\	4cc 4g- 4e-/	.	8D-\	.	8d-\	.	24g-LL 24A-/	.	24ccLL 24e-/	.	.	.	.	4e-\	A-	4g-\)	.	.	4cc\)	.	.	.	.	.	.	.	.	.	.	.	.	4c\	.	4g-/	.	.	.	4e-/	4cc\	4gg-\
.	.	.	.	.	.	.	24g- 24A-/	.	24cc 24e-/	.	.	.	.	.	.	.	.	.	.	.	.	.	.	.	.	.	.	.	.	.	.	.	.	.	.	.	.	.	.	.
.	.	.	.	.	.	.	24g- 24A-/	.	24cc 24e-/	.	.	.	.	.	.	.	.	.	.	.	.	.	.	.	.	.	.	.	.	.	.	.	.	.	.	.	.	.	.	.
8D-\	.	.	8D-\	.	8d-\	.	24g- 24A-/	.	24cc 24e-/	.	.	.	.	.	.	.	.	.	.	.	.	.	.	.	.	.	.	.	.	.	.	.	.	.	.	.	.	.	.	.
.	.	.	.	.	.	.	24g- 24A-/	.	24cc 24e-/	.	.	.	.	.	.	.	.	.	.	.	.	.	.	.	.	.	.	.	.	.	.	.	.	.	.	.	.	.	.	.
.	.	.	.	.	.	.	24g-JJ 24A-/	.	24ccJJ 24e-/	.	.	.	.	.	.	.	.	.	.	.	.	.	.	.	.	.	.	.	.	.	.	.	.	.	.	.	.	.	.	.
!	!	!	!	!	!	!	!LO:N:TREM:vis=4.	!	!LO:N:TREM:vis=4.	!	!	!	!	!	!	!	!	!	!	!	!	!	!	!	!	!	!	!	!	!	!	!	!	!	!	!	!	!	!	!
8D-\	4dd- 4f 4d-/	.	8D-\	.	8d-\	.	24fLL 24A-/	.	24dd-LL 24f/	.	4D-/	.	-gnus	4d-\	-gnus	4f\	-gnus	.	4dd-\	-gnus	.	.	.	.	.	.	.	.	.	.	.	4d-\	.	4f/	.	.	.	4f/	4dd-\	4ff\
.	.	.	.	.	.	.	24f 24A-/	.	24dd- 24f/	.	.	.	.	.	.	.	.	.	.	.	.	.	.	.	.	.	.	.	.	.	.	.	.	.	.	.	.	.	.	.
.	.	.	.	.	.	.	24f 24A-/	.	24dd- 24f/	.	.	.	.	.	.	.	.	.	.	.	.	.	.	.	.	.	.	.	.	.	.	.	.	.	.	.	.	.	.	.
8D-\J	.	.	8D-\J	.	8d-\J	.	24f 24A-/	.	24dd- 24f/	.	.	.	.	.	.	.	.	.	.	.	.	.	.	.	.	.	.	.	.	.	.	.	.	.	.	.	.	.	.	.
.	.	.	.	.	.	.	24f 24A-/	.	24dd- 24f/	.	.	.	.	.	.	.	.	.	.	.	.	.	.	.	.	.	.	.	.	.	.	.	.	.	.	.	.	.	.	.
.	.	.	.	.	.	.	24fJJ 24A-/	.	24dd-JJ 24f/	.	.	.	.	.	.	.	.	.	.	.	.	.	.	.	.	.	.	.	.	.	.	.	.	.	.	.	.	.	.	.
=32	=32	=32	=32	=32	=32	=32	=32	=32	=32	=32	=32	=32	=32	=32	=32	=32	=32	=32	=32	=32	=32	=32	=32	=32	=32	=32	=32	=32	=32	=32	=32	=32	=32	=32	=32	=32	=32	=32	=32	=32
!	!	!	!	!	!LO:LB:g=original	!	!	!	!	!	!	!	!	!	!	!	!	!	!	!	!	!	!LO:LB:g=original	!	!	!	!	!	!	!	!	!	!	!LO:LB:g=original	!	!	!	!	!	!
8D-\L	4.cc 4.g- 4.e-/	.	8D-\L	.	8d-\L	.	24g-LL 24A-/	.	(16aa-\LL	.	4D-/	De-	.	4e-\	De-	4g-\	De-	.	4cc\	De-	.	2.r	2.D-\	2.r	2.r	4.d-X\	.	4.d-X\	.	4.D-\	.	4.e-\	.	4.g-/	.	16aa-\LL]	.	4.g-X/	4.cc\	4.ee-\
.	.	.	.	.	.	.	24g- 24A-/	.	.	.	.	.	.	.	.	.	.	.	.	.	.	.	.	.	.	.	.	.	.	.	.	.	.	.	.	.	.	.	.	.
.	.	.	.	.	.	.	.	.	16gg-\	.	.	.	.	.	.	.	.	.	.	.	.	.	.	.	.	.	.	.	.	.	.	.	.	.	.	16gg-\	.	.	.	.
.	.	.	.	.	.	.	24g- 24A-/	.	.	.	.	.	.	.	.	.	.	.	.	.	.	.	.	.	.	.	.	.	.	.	.	.	.	.	.	.	.	.	.	.
8D-\	.	.	8D-\	.	8d-\	.	24g- 24A-/	.	16ee-\	.	.	.	.	.	.	.	.	.	.	.	.	.	.	.	.	.	.	.	.	.	.	.	.	.	.	16ee-\	.	.	.	.
.	.	.	.	.	.	.	24g- 24A-/	.	.	.	.	.	.	.	.	.	.	.	.	.	.	.	.	.	.	.	.	.	.	.	.	.	.	.	.	.	.	.	.	.
.	.	.	.	.	.	.	.	.	16cc\JJ	.	.	.	.	.	.	.	.	.	.	.	.	.	.	.	.	.	.	.	.	.	.	.	.	.	.	16cc\JJ	.	.	.	.
.	.	.	.	.	.	.	24g- 24A-/	.	.	.	.	.	.	.	.	.	.	.	.	.	.	.	.	.	.	.	.	.	.	.	.	.	.	.	.	.	.	.	.	.
8D-\	.	.	8D-\	.	8d-\	.	24g- 24A-/	.	8a-\L)	.	8D-/	-i	.	8e-\	-i	8g-\	-i	.	8cc\	-i	.	.	.	.	.	.	.	.	.	.	.	.	.	.	.	4a-\	.	.	.	.
.	.	.	.	.	.	.	24g- 24A-/	.	.	.	.	.	.	.	.	.	.	.	.	.	.	.	.	.	.	.	.	.	.	.	.	.	.	.	.	.	.	.	.	.
.	.	.	.	.	.	.	24g- 24A-/	.	.	.	.	.	.	.	.	.	.	.	.	.	.	.	.	.	.	.	.	.	.	.	.	.	.	.	.	.	.	.	.	.
8D-\	8r	.	8D-\	.	8d-\	.	24g- 24A-/	.	(16ee-\L	.	8r	.	.	8r	.	8r	.	.	8r	.	.	.	.	.	.	8d-\L	.	8d-\L	.	8D-\L	.	8e-\L	.	8g-/L	.	.	.	8g-/L	8cc\L	8ee-\L
.	.	.	.	.	.	.	24g- 24A-/	.	.	.	.	.	.	.	.	.	.	.	.	.	.	.	.	.	.	.	.	.	.	.	.	.	.	.	.	.	.	.	.	.
.	.	.	.	.	.	.	.	.	16dd-\JJ	.	.	.	.	.	.	.	.	.	.	.	.	.	.	.	.	.	.	.	.	.	.	.	.	.	.	.	.	.	.	.
.	.	.	.	.	.	.	24g- 24A-/	.	.	.	.	.	.	.	.	.	.	.	.	.	.	.	.	.	.	.	.	.	.	.	.	.	.	.	.	.	.	.	.	.
8D-\	4r	.	8D-\	.	8d-\	.	24g- 24A-/	.	16cc\LL)	.	4r	.	.	4r	.	4r	.	.	4r	.	.	.	.	.	.	8d-\	.	8d-\	.	8D-\	.	8e-\	.	8g-/	.	4r	.	8g-/	8cc\	8ee-\
.	.	.	.	.	.	.	24g- 24A-/	.	.	.	.	.	.	.	.	.	.	.	.	.	.	.	.	.	.	.	.	.	.	.	.	.	.	.	.	.	.	.	.	.
.	.	.	.	.	.	.	.	.	(16a-\	.	.	.	.	.	.	.	.	.	.	.	.	.	.	.	.	.	.	.	.	.	.	.	.	.	.	.	.	.	.	.
.	.	.	.	.	.	.	24g- 24A-/	.	.	.	.	.	.	.	.	.	.	.	.	.	.	.	.	.	.	.	.	.	.	.	.	.	.	.	.	.	.	.	.	.
8D-\J	.	.	8D-\J	.	8d-\J	.	24g- 24A-/	.	16b-\	.	.	.	.	.	.	.	.	.	.	.	.	.	.	.	.	8d-\J	.	8d-\J	.	8D-\J	.	8e-\J	.	8g-/J	.	.	.	8g-/J	8cc\J	8ee-\J
.	.	.	.	.	.	.	24g- 24A-/	.	.	.	.	.	.	.	.	.	.	.	.	.	.	.	.	.	.	.	.	.	.	.	.	.	.	.	.	.	.	.	.	.
.	.	.	.	.	.	.	.	.	16cc\JJ)	.	.	.	.	.	.	.	.	.	.	.	.	.	.	.	.	.	.	.	.	.	.	.	.	.	.	.	.	.	.	.
.	.	.	.	.	.	.	24g-JJ 24A-/	.	.	.	.	.	.	.	.	.	.	.	.	.	.	.	.	.	.	.	.	.	.	.	.	.	.	.	.	.	.	.	.	.
=33	=33	=33	=33	=33	=33	=33	=33	=33	=33	=33	=33	=33	=33	=33	=33	=33	=33	=33	=33	=33	=33	=33	=33	=33	=33	=33	=33	=33	=33	=33	=33	=33	=33	=33	=33	=33	=33	=33	=33	=33
!	!	!	!	!	!	!	!LO:LB:g=original	!	!	!	!	!	!	!LO:PB:g=original	!	!	!	!	!	!	!	!	!	!	!	!	!	!	!	!	!	!	!	!	!	!	!	!	!	!
!	!	!	!	!	!	!	!	!	!LO:TX:a:t=P:problem=złe wyświetlanie wartości rytmicznej tremolo w t.33	!	!	!	!	!	!	!	!	!	!	!	!	!	!	!	!	!	!	!	!	!	!	!	!	!	!	!	!	!	!	!
!	!	!	!	!	!	!	!	!	!LO:TX:a:t=P:problem=sekstole oznaczone liczbą w t. 33	!	!	!	!	!	!	!	!	!	!	!	!	!	!	!	!	!	!	!	!	!	!	!	!	!	!	!	!	!	!	!
!	!	!	!	!	!	!	!LO:N:TREM:vis=4.	!	!LO:N:TREM:vis=4.	!	!	!	!	!	!	!	!	!	!	!	!	!	!	!	!	!	!	!	!	!	!	!	!	!	!	!	!	!	!	!
8D-\L	4dd- 4f 4d-/	.	8D-\L	.	8d-\L	.	24fLL 24A-/	.	24dd-LL 24f/	.	2D-/	A-	.	(4d-\	A-	(4f\	A-	.	(4dd-\	A-	.	2.r	2.D-\	2.r	2.r	2.d-X\	.	2.d-X\	.	2.D-\	.	4d-\	.	4f/	.	[2.aa-\	.	4f/	4dd-\	4ff\
.	.	.	.	.	.	.	24f 24A-/	.	24dd- 24f/	.	.	.	.	.	.	.	.	.	.	.	.	.	.	.	.	.	.	.	.	.	.	.	.	.	.	.	.	.	.	.
.	.	.	.	.	.	.	24f 24A-/	.	24dd- 24f/	.	.	.	.	.	.	.	.	.	.	.	.	.	.	.	.	.	.	.	.	.	.	.	.	.	.	.	.	.	.	.
8D-\	.	.	8D-\	.	8d-\	.	24f 24A-/	.	24dd- 24f/	.	.	.	.	.	.	.	.	.	.	.	.	.	.	.	.	.	.	.	.	.	.	.	.	.	.	.	.	.	.	.
.	.	.	.	.	.	.	24f 24A-/	.	24dd- 24f/	.	.	.	.	.	.	.	.	.	.	.	.	.	.	.	.	.	.	.	.	.	.	.	.	.	.	.	.	.	.	.
.	.	.	.	.	.	.	24fJJ 24A-/	.	24dd-JJ 24f/	.	.	.	.	.	.	.	.	.	.	.	.	.	.	.	.	.	.	.	.	.	.	.	.	.	.	.	.	.	.	.
!	!	!	!	!	!	!	!LO:N:TREM:vis=4.	!	!LO:N:TREM:vis=4.	!	!	!	!	!	!	!	!	!	!	!	!	!	!	!	!	!	!	!	!	!	!	!	!	!	!	!	!	!	!	!
8D-\	4cc 4g- 4e-/	.	8D-\	.	8d-\	.	24g-LL 24A-/	.	24ccLL 24e-/	.	.	.	.	4e-\)	.	4g-\)	.	.	4cc\)	.	.	.	.	.	.	.	.	.	.	.	.	4c\	.	4g-/	.	.	.	4e-/	4cc\	4gg-\
.	.	.	.	.	.	.	24g- 24A-/	.	24cc 24e-/	.	.	.	.	.	.	.	.	.	.	.	.	.	.	.	.	.	.	.	.	.	.	.	.	.	.	.	.	.	.	.
.	.	.	.	.	.	.	24g- 24A-/	.	24cc 24e-/	.	.	.	.	.	.	.	.	.	.	.	.	.	.	.	.	.	.	.	.	.	.	.	.	.	.	.	.	.	.	.
8D-\	.	.	8D-\	.	8d-\	.	24g- 24A-/	.	24cc 24e-/	.	.	.	.	.	.	.	.	.	.	.	.	.	.	.	.	.	.	.	.	.	.	.	.	.	.	.	.	.	.	.
.	.	.	.	.	.	.	24g- 24A-/	.	24cc 24e-/	.	.	.	.	.	.	.	.	.	.	.	.	.	.	.	.	.	.	.	.	.	.	.	.	.	.	.	.	.	.	.
.	.	.	.	.	.	.	24g-JJ 24A-/	.	24ccJJ 24e-/	.	.	.	.	.	.	.	.	.	.	.	.	.	.	.	.	.	.	.	.	.	.	.	.	.	.	.	.	.	.	.
!	!	!	!	!	!	!	!LO:N:TREM:vis=4.	!	!LO:N:TREM:vis=4.	!	!	!	!	!	!	!	!	!	!	!	!	!	!	!	!	!	!	!	!	!	!	!	!	!	!	!	!	!	!	!
8D-\	4dd- 4f 4d-/	.	8D-\	.	8d-\	.	24fLL 24A-/	.	24dd-LL 24f/	.	4D-/	-gnus	.	4d-\	-gnus	4f\	-gnus	.	4dd-\	-gnus	.	.	.	.	.	.	.	.	.	.	.	4d-\	.	4f/	.	.	.	4f/	4dd-\	4ff\
.	.	.	.	.	.	.	24f 24A-/	.	24dd- 24f/	.	.	.	.	.	.	.	.	.	.	.	.	.	.	.	.	.	.	.	.	.	.	.	.	.	.	.	.	.	.	.
.	.	.	.	.	.	.	24f 24A-/	.	24dd- 24f/	.	.	.	.	.	.	.	.	.	.	.	.	.	.	.	.	.	.	.	.	.	.	.	.	.	.	.	.	.	.	.
8D-\J	.	.	8D-\J	.	8d-\J	.	24f 24A-/	.	24dd- 24f/	.	.	.	.	.	.	.	.	.	.	.	.	.	.	.	.	.	.	.	.	.	.	.	.	.	.	.	.	.	.	.
.	.	.	.	.	.	.	24f 24A-/	.	24dd- 24f/	.	.	.	.	.	.	.	.	.	.	.	.	.	.	.	.	.	.	.	.	.	.	.	.	.	.	.	.	.	.	.
.	.	.	.	.	.	.	24fJJ 24A-/	.	24dd-JJ 24f/	.	.	.	.	.	.	.	.	.	.	.	.	.	.	.	.	.	.	.	.	.	.	.	.	.	.	.	.	.	.	.
=34	=34	=34	=34	=34	=34	=34	=34	=34	=34	=34	=34	=34	=34	=34	=34	=34	=34	=34	=34	=34	=34	=34	=34	=34	=34	=34	=34	=34	=34	=34	=34	=34	=34	=34	=34	=34	=34	=34	=34	=34
!	!	!	!	!	!	!	!	!	!LO:LB:g=original	!	!	!	!	!	!	!	!	!	!	!	!	!	!	!	!	!	!	!LO:LB:g=original	!	!	!	!	!	!	!	!	!	!	!	!
8D-\L	4.cc 4.g- 4.e-/	.	8D-\L	.	8d-\L	.	24g-LL 24A-/	.	(16aa-\LL	.	4D-/	De-	.	4e-\	De-	4g-\	De-	.	4cc\	De-	.	2.r	2.D-\	2.r	2.r	4.d-X\	.	4.d-X\	.	4.D-\	.	4.e-\	.	4.g-/	.	16aa-\LL]	.	4.g-X/	4.cc\	4.ee-\
.	.	.	.	.	.	.	24g- 24A-/	.	.	.	.	.	.	.	.	.	.	.	.	.	.	.	.	.	.	.	.	.	.	.	.	.	.	.	.	.	.	.	.	.
.	.	.	.	.	.	.	.	.	16gg-\	.	.	.	.	.	.	.	.	.	.	.	.	.	.	.	.	.	.	.	.	.	.	.	.	.	.	16gg-\	.	.	.	.
.	.	.	.	.	.	.	24g- 24A-/	.	.	.	.	.	.	.	.	.	.	.	.	.	.	.	.	.	.	.	.	.	.	.	.	.	.	.	.	.	.	.	.	.
8D-\	.	.	8D-\	.	8d-\	.	24g- 24A-/	.	16ee-\	.	.	.	.	.	.	.	.	.	.	.	.	.	.	.	.	.	.	.	.	.	.	.	.	.	.	16ee-\	.	.	.	.
.	.	.	.	.	.	.	24g- 24A-/	.	.	.	.	.	.	.	.	.	.	.	.	.	.	.	.	.	.	.	.	.	.	.	.	.	.	.	.	.	.	.	.	.
.	.	.	.	.	.	.	.	.	16cc\JJ)	.	.	.	.	.	.	.	.	.	.	.	.	.	.	.	.	.	.	.	.	.	.	.	.	.	.	16cc\JJ	.	.	.	.
.	.	.	.	.	.	.	24g- 24A-/	.	.	.	.	.	.	.	.	.	.	.	.	.	.	.	.	.	.	.	.	.	.	.	.	.	.	.	.	.	.	.	.	.
8D-\	.	.	8D-\	.	8d-\	.	24g- 24A-/	.	8a-\L	.	8D-/	-i	.	8e-\	-i	8g-\	-i	.	8cc\	-i	.	.	.	.	.	.	.	.	.	.	.	.	.	.	.	4a-\	.	.	.	.
.	.	.	.	.	.	.	24g- 24A-/	.	.	.	.	.	.	.	.	.	.	.	.	.	.	.	.	.	.	.	.	.	.	.	.	.	.	.	.	.	.	.	.	.
.	.	.	.	.	.	.	24g- 24A-/	.	.	.	.	.	.	.	.	.	.	.	.	.	.	.	.	.	.	.	.	.	.	.	.	.	.	.	.	.	.	.	.	.
8D-\	8r	.	8D-\	.	8d-\	.	24g- 24A-/	.	(16ee-\L	.	8r	.	.	8r	.	8r	.	.	8r	.	.	.	.	.	.	8d-\L	.	8d-\L	.	8D-\L	.	8e-\L	.	8g-/L	.	.	.	8g-/L	8cc\L	8ee-\L
.	.	.	.	.	.	.	24g- 24A-/	.	.	.	.	.	.	.	.	.	.	.	.	.	.	.	.	.	.	.	.	.	.	.	.	.	.	.	.	.	.	.	.	.
.	.	.	.	.	.	.	.	.	16dd-\JJ	.	.	.	.	.	.	.	.	.	.	.	.	.	.	.	.	.	.	.	.	.	.	.	.	.	.	.	.	.	.	.
.	.	.	.	.	.	.	24g- 24A-/	.	.	.	.	.	.	.	.	.	.	.	.	.	.	.	.	.	.	.	.	.	.	.	.	.	.	.	.	.	.	.	.	.
8D-\	4r	.	8D-\	.	8d-\	.	24g- 24A-/	.	16cc\LL	.	4r	.	.	4r	.	4r	.	.	4r	.	.	.	.	.	.	8d-\	.	8d-\	.	8D-\	.	8e-\	.	8g-/	.	4r	.	8g-/	8cc\	8ee-\
.	.	.	.	.	.	.	24g- 24A-/	.	.	.	.	.	.	.	.	.	.	.	.	.	.	.	.	.	.	.	.	.	.	.	.	.	.	.	.	.	.	.	.	.
.	.	.	.	.	.	.	.	.	16a-\	.	.	.	.	.	.	.	.	.	.	.	.	.	.	.	.	.	.	.	.	.	.	.	.	.	.	.	.	.	.	.
.	.	.	.	.	.	.	24g- 24A-/	.	.	.	.	.	.	.	.	.	.	.	.	.	.	.	.	.	.	.	.	.	.	.	.	.	.	.	.	.	.	.	.	.
8D-\J	.	.	8D-\J	.	8d-\J	.	24g- 24A-/	.	16b-\	.	.	.	.	.	.	.	.	.	.	.	.	.	.	.	.	8d-\J	.	8d-\J	.	8D-\J	.	8e-\J	.	8g-/J	.	.	.	8g-/J	8cc\J	8ee-\J
.	.	.	.	.	.	.	24g- 24A-/	.	.	.	.	.	.	.	.	.	.	.	.	.	.	.	.	.	.	.	.	.	.	.	.	.	.	.	.	.	.	.	.	.
.	.	.	.	.	.	.	.	.	16cc\JJ)	.	.	.	.	.	.	.	.	.	.	.	.	.	.	.	.	.	.	.	.	.	.	.	.	.	.	.	.	.	.	.
.	.	.	.	.	.	.	24g-JJ 24A-/	.	.	.	.	.	.	.	.	.	.	.	.	.	.	.	.	.	.	.	.	.	.	.	.	.	.	.	.	.	.	.	.	.
*Xtremolo	*	*	*Xtremolo	*	*Xtremolo	*	*	*	*	*	*	*	*	*	*	*	*	*	*	*	*	*	*	*	*	*	*	*	*	*	*	*	*	*	*	*	*	*	*	*
=35	=35	=35	=35	=35	=35	=35	=35	=35	=35	=35	=35	=35	=35	=35	=35	=35	=35	=35	=35	=35	=35	=35	=35	=35	=35	=35	=35	=35	=35	=35	=35	=35	=35	=35	=35	=35	=35	=35	=35	=35
!LO:PB:g=original	!LO:PB:g=original	!	!	!	!	!	!	!	!	!	!LO:PB:g=original	!	!	!	!	!	!	!	!	!	!	!	!	!	!	!LO:LB:g=original	!	!	!	!	!	!	!	!	!	!	!	!LO:LB:g=original	!	!
*	*^	*	*	*	*	*	*	*	*	*	*	*	*	*	*	*	*	*	*	*	*	*	*	*	*	*	*	*	*	*	*	*	*	*	*	*	*	*	*	*
!	!	!	!	!	!	!	!	!	!	!LO:TX:a:t=P:problem=złe wyświetlanie wartości rytmicznej tremolo w t.35-36	!	!	!	!	!	!	!	!	!	!	!	!	!	!	!	!	!	!	!	!	!	!	!	!	!	!	!	!	!	!	!
!	!	!	!	!	!	!	!	!	!	!LO:TX:a:t=P:problem=sekstole oznaczone liczbą w tt. 35-36	!	!	!	!	!	!	!	!	!	!	!	!	!	!	!	!	!	!	!	!	!	!	!	!	!	!	!	!	!	!	!
!	!	!	!	!	!	!	!	!LO:N:TREM:vis=4.	!	!LO:N:TREM:vis=4.	!	!	!	!	!	!	!	!	!	!	!	!	!	!	!	!	!	!	!	!	!	!	!	!	!	!	!	!	!	!	!
8D-\L	4dd-/	4f 4d-\	.	8D-\L	.	8d-\L	.	24fLL 24A-/	.	24dd-\LL	.	(4D-\	A-	.	(4d-\	A-	(4f\	A-	.	(4dd-\	A-	.	2.r	4D-\	2.r	2.r	4d-X\	.	4d-X\	.	4D-\	.	4d-\	.	4f/	.	4dd-\	.	4f/	4dd-\	4ff\
.	.	.	.	.	.	.	.	24f 24A-/	.	24dd-\	.	.	.	.	.	.	.	.	.	.	.	.	.	.	.	.	.	.	.	.	.	.	.	.	.	.	.	.	.	.	.
.	.	.	.	.	.	.	.	24f 24A-/	.	24dd-\	.	.	.	.	.	.	.	.	.	.	.	.	.	.	.	.	.	.	.	.	.	.	.	.	.	.	.	.	.	.	.
8D-\	.	.	.	8D-\	.	8d-\	.	24f 24A-/	.	24dd-\	.	.	.	.	.	.	.	.	.	.	.	.	.	.	.	.	.	.	.	.	.	.	.	.	.	.	.	.	.	.	.
.	.	.	.	.	.	.	.	24f 24A-/	.	24dd-\	.	.	.	.	.	.	.	.	.	.	.	.	.	.	.	.	.	.	.	.	.	.	.	.	.	.	.	.	.	.	.
.	.	.	.	.	.	.	.	24fJJ 24A-/	.	24dd-\JJ	.	.	.	.	.	.	.	.	.	.	.	.	.	.	.	.	.	.	.	.	.	.	.	.	.	.	.	.	.	.	.
!	!	!	!	!	!	!	!	!LO:N:TREM:vis=4.	!	!LO:N:TREM:vis=4.	!	!	!	!	!	!	!	!	!	!	!	!	!	!	!	!	!	!	!	!	!	!	!	!	!	!	!	!	!	!	!
8E-\	4cc/	4a- 4g-\	.	8E-\	.	8e-\	.	24g-LL 24A-/	.	24cc\LL	.	4E-\)	.	.	4A-\)	.	4g-\)	.	.	4cc\)	.	.	.	4E-\	.	.	4e-\	.	4e-\	.	4E-\	.	4E-\	.	4g-/	.	4cc\	.	4g-/	4cc\	4gg-\
.	.	.	.	.	.	.	.	24g- 24A-/	.	24cc\	.	.	.	.	.	.	.	.	.	.	.	.	.	.	.	.	.	.	.	.	.	.	.	.	.	.	.	.	.	.	.
.	.	.	.	.	.	.	.	24g- 24A-/	.	24cc\	.	.	.	.	.	.	.	.	.	.	.	.	.	.	.	.	.	.	.	.	.	.	.	.	.	.	.	.	.	.	.
8E-\	.	.	.	8E-\	.	8e-\	.	24g- 24A-/	.	24cc\	.	.	.	.	.	.	.	.	.	.	.	.	.	.	.	.	.	.	.	.	.	.	.	.	.	.	.	.	.	.	.
.	.	.	.	.	.	.	.	24g- 24A-/	.	24cc\	.	.	.	.	.	.	.	.	.	.	.	.	.	.	.	.	.	.	.	.	.	.	.	.	.	.	.	.	.	.	.
.	.	.	.	.	.	.	.	24g-JJ 24A-/	.	24cc\JJ	.	.	.	.	.	.	.	.	.	.	.	.	.	.	.	.	.	.	.	.	.	.	.	.	.	.	.	.	.	.	.
!	!	!	!	!	!	!	!	!LO:N:TREM:vis=4.	!	!LO:N:TREM:vis=4.	!	!	!	!	!	!	!	!	!	!	!	!	!	!	!	!	!	!	!	!	!	!	!	!	!	!	!	!	!	!	!
8F\	4dd- 4a-/	4a-\	.	8F\	.	8f\	.	24a-LL 24A-/	.	24dd-\LL	.	4F\	-gnus	.	4A-\	-gnus	4a-\	-gnus	.	4dd-\	-gnus	.	.	4F\	.	.	4f\	.	4f\	.	4F\	.	4F\	.	4a-/	.	4dd-\	.	4a-/	4dd-\	4aa-\
.	.	.	.	.	.	.	.	24a- 24A-/	.	24dd-\	.	.	.	.	.	.	.	.	.	.	.	.	.	.	.	.	.	.	.	.	.	.	.	.	.	.	.	.	.	.	.
.	.	.	.	.	.	.	.	24a- 24A-/	.	24dd-\	.	.	.	.	.	.	.	.	.	.	.	.	.	.	.	.	.	.	.	.	.	.	.	.	.	.	.	.	.	.	.
8F\J	.	.	.	8F\J	.	8f\J	.	24a- 24A-/	.	24dd-\	.	.	.	.	.	.	.	.	.	.	.	.	.	.	.	.	.	.	.	.	.	.	.	.	.	.	.	.	.	.	.
.	.	.	.	.	.	.	.	24a- 24A-/	.	24dd-\	.	.	.	.	.	.	.	.	.	.	.	.	.	.	.	.	.	.	.	.	.	.	.	.	.	.	.	.	.	.	.
.	.	.	.	.	.	.	.	24a-JJ 24A-/	.	24dd-\JJ	.	.	.	.	.	.	.	.	.	.	.	.	.	.	.	.	.	.	.	.	.	.	.	.	.	.	.	.	.	.	.
=36	=36	=36	=36	=36	=36	=36	=36	=36	=36	=36	=36	=36	=36	=36	=36	=36	=36	=36	=36	=36	=36	=36	=36	=36	=36	=36	=36	=36	=36	=36	=36	=36	=36	=36	=36	=36	=36	=36	=36	=36	=36
!	!	!	!	!LO:PB:g=original	!	!	!	!	!	!	!	!	!	!	!	!	!	!	!	!LO:LB:g=original	!	!	!	!	!	!	!	!	!	!	!	!	!LO:LB:g=original	!	!	!	!LO:LB:g=original	!	!	!LO:LB:g=original	!
!	!	!	!	!	!	!	!	!LO:N:TREM:vis=2.	!	!LO:N:TREM:vis=4.	!	!	!	!	!	!	!	!	!	!	!	!	!	!	!	!	!	!	!	!	!	!	!	!	!	!	!	!	!	!	!
8G-\L	2dd-/	4b-\	.	8G-\L	.	8g-\L	.	24dd-\LL	.	24bb-\LL	.	4G-\	De-	.	4d-\	De-	4b-\	De-	.	4dd-\	De-	.	2.r	4G-\	2.r	2.r	4g-X\	.	4g-X\	.	4G-\	.	4G-\	.	4b-\	.	2dd-\	.	4b-/	2dd-\	4bb-\
.	.	.	.	.	.	.	.	24dd-\	.	24bb-\	.	.	.	.	.	.	.	.	.	.	.	.	.	.	.	.	.	.	.	.	.	.	.	.	.	.	.	.	.	.	.
.	.	.	.	.	.	.	.	24dd-\	.	24bb-\	.	.	.	.	.	.	.	.	.	.	.	.	.	.	.	.	.	.	.	.	.	.	.	.	.	.	.	.	.	.	.
8G-\	.	.	.	8G-\	.	8g-\	.	24dd-\	.	24bb-\	.	.	.	.	.	.	.	.	.	.	.	.	.	.	.	.	.	.	.	.	.	.	.	.	.	.	.	.	.	.	.
.	.	.	.	.	.	.	.	24dd-\	.	24bb-\	.	.	.	.	.	.	.	.	.	.	.	.	.	.	.	.	.	.	.	.	.	.	.	.	.	.	.	.	.	.	.
.	.	.	.	.	.	.	.	24dd-\	.	24bb-\JJ	.	.	.	.	.	.	.	.	.	.	.	.	.	.	.	.	.	.	.	.	.	.	.	.	.	.	.	.	.	.	.
!	!	!	!	!	!	!	!	!	!	!LO:N:TREM:vis=4.	!	!	!	!	!	!	!	!	!	!	!	!	!	!	!	!	!	!	!	!	!	!	!	!	!	!	!	!	!	!	!
8F\	.	[2a-\	.	8F\	.	8f\	.	24dd-\	.	24aa-\LL	.	8F\	-i	.	8d-\	-i	8a-\	-i	.	8dd-\	-i	.	.	4F\	.	.	[2f\	.	[2f\	.	8F\	.	8F\	.	8a-\	.	.	.	8a-/	.	8aa-\
.	.	.	.	.	.	.	.	24dd-\	.	24aa-\	.	.	.	.	.	.	.	.	.	.	.	.	.	.	.	.	.	.	.	.	.	.	.	.	.	.	.	.	.	.	.
.	.	.	.	.	.	.	.	24dd-\	.	24aa-\	.	.	.	.	.	.	.	.	.	.	.	.	.	.	.	.	.	.	.	.	.	.	.	.	.	.	.	.	.	.	.
8F\J	.	.	.	8F\J	.	8f\J	.	24dd-\	.	24aa-\	.	8r	.	.	8r	.	8r	.	.	8r	.	.	.	.	.	.	.	.	.	.	8r	.	8r	.	8r	.	.	.	8r	.	8r
.	.	.	.	.	.	.	.	24dd-\	.	24aa-\	.	.	.	.	.	.	.	.	.	.	.	.	.	.	.	.	.	.	.	.	.	.	.	.	.	.	.	.	.	.	.
.	.	.	.	.	.	.	.	24dd-\JJ	.	24aa-\JJ	.	.	.	.	.	.	.	.	.	.	.	.	.	.	.	.	.	.	.	.	.	.	.	.	.	.	.	.	.	.	.
!	!	!	!	!	!	!	!	!LO:N:TREM:vis=4.	!	!LO:N:TREM:vis=4.	!	!	!	!	!	!	!	!	!	!	!	!	!	!	!	!	!	!	!	!	!	!	!	!	!	!	!	!	!	!	!
8.d-\L	[4ff/	.	.	8.d-\L	.	8.d-\L	.	24ff\LL	.	24aa-\LL	.	(8.d-\L	qui	.	4f\	qui	4a-\	qui	.	4r	.	.	.	8.D-/L	.	.	.	.	.	.	8.d-\L	.	8.d-\L	.	4r	.	[4aa-\	.	4ff\	4aa-\	[4aa-\
.	.	.	.	.	.	.	.	24ff\	.	24aa-\	.	.	.	.	.	.	.	.	.	.	.	.	.	.	.	.	.	.	.	.	.	.	.	.	.	.	.	.	.	.	.
.	.	.	.	.	.	.	.	24ff\	.	24aa-\	.	.	.	.	.	.	.	.	.	.	.	.	.	.	.	.	.	.	.	.	.	.	.	.	.	.	.	.	.	.	.
.	.	.	.	.	.	.	.	24ff\	.	24aa-\	.	.	.	.	.	.	.	.	.	.	.	.	.	.	.	.	.	.	.	.	.	.	.	.	.	.	.	.	.	.	.
.	.	.	.	.	.	.	.	24ff\	.	24aa-\	.	.	.	.	.	.	.	.	.	.	.	.	.	.	.	.	.	.	.	.	.	.	.	.	.	.	.	.	.	.	.
16c\Jk	.	.	.	16c\Jk	.	16c\Jk	.	.	.	.	.	16c\Jk)	.	.	.	.	.	.	.	.	.	.	.	16C/Jk	.	.	.	.	.	.	16c\Jk	.	16c\Jk	.	.	.	.	.	.	.	.
.	.	.	.	.	.	.	.	24ff\JJ	.	24aa-\JJ	.	.	.	.	.	.	.	.	.	.	.	.	.	.	.	.	.	.	.	.	.	.	.	.	.	.	.	.	.	.	.
=37	=37	=37	=37	=37	=37	=37	=37	=37	=37	=37	=37	=37	=37	=37	=37	=37	=37	=37	=37	=37	=37	=37	=37	=37	=37	=37	=37	=37	=37	=37	=37	=37	=37	=37	=37	=37	=37	=37	=37	=37	=37
!	!	!	!	!	!	!	!	!	!	!	!	!	!	!	!	!	!LO:LB:g=original	!	!	!	!	!	!	!	!	!	!	!	!	!	!	!	!	!	!	!	!	!	!	!	!
*	*	*	*	*	*	*	*	*	*	*Xtuplet	*	*	*	*	*	*	*	*	*	*	*	*	*	*	*	*	*	*	*	*	*	*	*	*	*	*	*	*	*	*	*
8Bn\	2.ff] 2.ddn/	8.a-\L]	.	8Bn\	.	8Bn/	.	24ffLL 24ddn\	.	24aa-\LL	.	4Bn\	tol-	.	4f\	tol-	(8.a-\L	tol-	.	8r	.	.	2.r	2.BBn/	2.r	2.r	2.f\]	.	2.f\]	.	2.Bn\	.	2.Bn\	.	2.dd\	.	8aa-\L]	.	2.ff\	8aa-\L	8aa-\L]
.	.	.	.	.	.	.	.	24ff 24dd\	.	24aa-\	.	.	.	.	.	.	.	.	.	.	.	.	.	.	.	.	.	.	.	.	.	.	.	.	.	.	.	.	.	.	.
.	.	.	.	.	.	.	.	24ff 24dd\	.	24aa-\	.	.	.	.	.	.	.	.	.	.	.	.	.	.	.	.	.	.	.	.	.	.	.	.	.	.	.	.	.	.	.
8r	.	.	.	8r	.	8r	.	24ff 24dd\	.	24ggn\	.	.	.	.	.	.	.	.	.	8ddn\	qui	.	.	.	.	.	.	.	.	.	.	.	.	.	.	.	8gg\J	.	.	8ggn\J	8ggn\J
.	.	.	.	.	.	.	.	24ff 24dd\	.	24gg\	.	.	.	.	.	.	.	.	.	.	.	.	.	.	.	.	.	.	.	.	.	.	.	.	.	.	.	.	.	.	.
.	.	16gn\Jk	.	.	.	.	.	.	.	.	.	.	.	.	.	.	16gn\Jk)	.	.	.	.	.	.	.	.	.	.	.	.	.	.	.	.	.	.	.	.	.	.	.	.
.	.	.	.	.	.	.	.	24ff 24dd\	.	24gg\JJ	.	.	.	.	.	.	.	.	.	.	.	.	.	.	.	.	.	.	.	.	.	.	.	.	.	.	.	.	.	.	.
8B\	.	[2g\	.	8B\	.	8B/	.	24ff 24dd\	.	8gg\	.	4B\	-lis	.	4f\	-lis	4g\	-lis	.	4dd\	tol-	.	.	.	.	.	.	.	.	.	.	.	.	.	.	.	[2gg\	.	.	2gg\	2gg\
.	.	.	.	.	.	.	.	24ff 24dd\	.	.	.	.	.	.	.	.	.	.	.	.	.	.	.	.	.	.	.	.	.	.	.	.	.	.	.	.	.	.	.	.	.
.	.	.	.	.	.	.	.	24ff 24dd\	.	.	.	.	.	.	.	.	.	.	.	.	.	.	.	.	.	.	.	.	.	.	.	.	.	.	.	.	.	.	.	.	.
8r	.	.	.	8r	.	8r	.	24ff 24dd\	.	8r	.	.	.	.	.	.	.	.	.	.	.	.	.	.	.	.	.	.	.	.	.	.	.	.	.	.	.	.	.	.	.
.	.	.	.	.	.	.	.	24ff 24dd\	.	.	.	.	.	.	.	.	.	.	.	.	.	.	.	.	.	.	.	.	.	.	.	.	.	.	.	.	.	.	.	.	.
.	.	.	.	.	.	.	.	24ff 24dd\	.	.	.	.	.	.	.	.	.	.	.	.	.	.	.	.	.	.	.	.	.	.	.	.	.	.	.	.	.	.	.	.	.
8B\	.	.	.	8B\	.	8B/	.	24ff 24dd\	.	4r	.	4B\	pec-	.	4f\	pec-	4g\	pec-	.	8.dd\	-lis	.	.	.	.	.	.	.	.	.	.	.	.	.	.	.	.	.	.	.	.
.	.	.	.	.	.	.	.	24ff 24dd\	.	.	.	.	.	.	.	.	.	.	.	.	.	.	.	.	.	.	.	.	.	.	.	.	.	.	.	.	.	.	.	.	.
.	.	.	.	.	.	.	.	24ff 24dd\	.	.	.	.	.	.	.	.	.	.	.	.	.	.	.	.	.	.	.	.	.	.	.	.	.	.	.	.	.	.	.	.	.
8r	.	.	.	8r	.	8r	.	24ff 24dd\	.	.	.	.	.	.	.	.	.	.	.	.	.	.	.	.	.	.	.	.	.	.	.	.	.	.	.	.	.	.	.	.	.
.	.	.	.	.	.	.	.	24ff 24dd\	.	.	.	.	.	.	.	.	.	.	.	.	.	.	.	.	.	.	.	.	.	.	.	.	.	.	.	.	.	.	.	.	.
.	.	.	.	.	.	.	.	.	.	.	.	.	.	.	.	.	.	.	.	16dd\	pec-	.	.	.	.	.	.	.	.	.	.	.	.	.	.	.	.	.	.	.	.
.	.	.	.	.	.	.	.	24ffJJ 24dd\	.	.	.	.	.	.	.	.	.	.	.	.	.	.	.	.	.	.	.	.	.	.	.	.	.	.	.	.	.	.	.	.	.
=38	=38	=38	=38	=38	=38	=38	=38	=38	=38	=38	=38	=38	=38	=38	=38	=38	=38	=38	=38	=38	=38	=38	=38	=38	=38	=38	=38	=38	=38	=38	=38	=38	=38	=38	=38	=38	=38	=38	=38	=38	=38
!	!	!	!	!	!	!	!	!	!	!	!	!	!	!	!LO:LB:g=original	!	!	!	!	!	!	!	!	!	!	!	!	!	!	!	!LO:LB:g=original	!	!	!	!	!	!	!	!	!	!LO:LB:g=original
!	!	!	!	!	!	!	!	!	!	!LO:TX:a:t=P:problem=złe wyświetlanie wartości rytmicznej tremolo w t.38	!	!	!	!	!	!	!	!	!	!	!	!	!	!	!	!	!	!	!	!	!	!	!	!	!	!	!	!	!	!	!
!	!	!	!	!	!	!	!	!	!	!LO:TX:a:t=P:problem=sekstole oznaczone liczbą w t. 38	!	!	!	!	!	!	!	!	!	!	!	!	!	!	!	!	!	!	!	!	!	!	!	!	!	!	!	!	!	!	!
!	!	!	!	!	!	!	!	!	!	!LO:N:TREM:vis=4.	!	!	!	!	!	!	!	!	!	!	!	!	!	!	!	!	!	!	!	!	!	!	!	!	!	!	!	!	!	!	!
8c\	[2.ee-/	2gn\]	.	8c\	.	8c/	.	24ee-\LL	.	24ggn\LL	.	4c\	-ca-	.	4e-\	-ca-	4gn\	-ca-	.	4ee-\	-ca-	.	2.r	2C/	2.r	2.r	[2.e-\	.	2g\	.	2c\	.	2c\	.	2.ee-\	.	2gg\]	.	2.ee-\	2ggn\	2ggn\
.	.	.	.	.	.	.	.	24ee-\	.	24gg\	.	.	.	.	.	.	.	.	.	.	.	.	.	.	.	.	.	.	.	.	.	.	.	.	.	.	.	.	.	.	.
.	.	.	.	.	.	.	.	24ee-\	.	24gg\	.	.	.	.	.	.	.	.	.	.	.	.	.	.	.	.	.	.	.	.	.	.	.	.	.	.	.	.	.	.	.
8r	.	.	.	8r	.	8r	.	24ee-\	.	24gg\	.	.	.	.	.	.	.	.	.	.	.	.	.	.	.	.	.	.	.	.	.	.	.	.	.	.	.	.	.	.	.
.	.	.	.	.	.	.	.	24ee-\	.	24gg\	.	.	.	.	.	.	.	.	.	.	.	.	.	.	.	.	.	.	.	.	.	.	.	.	.	.	.	.	.	.	.
.	.	.	.	.	.	.	.	24ee-\	.	24gg\JJ	.	.	.	.	.	.	.	.	.	.	.	.	.	.	.	.	.	.	.	.	.	.	.	.	.	.	.	.	.	.	.
!	!	!	!	!	!	!	!	!	!	!LO:N:TREM:vis=4.	!	!	!	!	!	!	!	!	!	!	!	!	!	!	!	!	!	!	!	!	!	!	!	!	!	!	!	!	!	!	!
8c\	.	.	.	8c\	.	8c/	.	24ee-\	.	24gg\LL	.	8c\	-ta	.	8e-\	-ta	8g\	-ta	.	8ee-\	-ta	.	.	.	.	.	.	.	.	.	.	.	.	.	.	.	.	.	.	.	.
.	.	.	.	.	.	.	.	24ee-\	.	24gg\	.	.	.	.	.	.	.	.	.	.	.	.	.	.	.	.	.	.	.	.	.	.	.	.	.	.	.	.	.	.	.
.	.	.	.	.	.	.	.	24ee-\	.	24gg\	.	.	.	.	.	.	.	.	.	.	.	.	.	.	.	.	.	.	.	.	.	.	.	.	.	.	.	.	.	.	.
8r	.	.	.	8r	.	8r	.	24ee-\	.	24gg\	.	8r	.	.	8r	.	8r	.	.	8r	.	.	.	.	.	.	.	.	.	.	.	.	.	.	.	.	.	.	.	.	.
.	.	.	.	.	.	.	.	24ee-\	.	24gg\	.	.	.	.	.	.	.	.	.	.	.	.	.	.	.	.	.	.	.	.	.	.	.	.	.	.	.	.	.	.	.
.	.	.	.	.	.	.	.	24ee-\	.	24gg\JJ	.	.	.	.	.	.	.	.	.	.	.	.	.	.	.	.	.	.	.	.	.	.	.	.	.	.	.	.	.	.	.
!	!	!	!	!	!	!	!	!	!	!LO:N:TREM:vis=4.	!	!	!	!	!	!	!	!	!	!	!	!	!	!	!	!	!	!	!	!	!	!	!	!	!	!	!	!	!	!	!
8.c\L	.	[4g-X\	.	8.c\L	.	8.c/L	.	24ee-\	.	24gg-X\LL	.	(8.c\L	qui	.	4e-\	qui	4g-X\	pec-	.	4r	.	.	.	8.C/L	.	.	.	.	4g-X\	.	8.c\L	.	8.c\L	.	.	.	[4gg-X\	.	.	4gg-X\	[4gg-X\
.	.	.	.	.	.	.	.	24ee-\	.	24gg-\	.	.	.	.	.	.	.	.	.	.	.	.	.	.	.	.	.	.	.	.	.	.	.	.	.	.	.	.	.	.	.
.	.	.	.	.	.	.	.	24ee-\	.	24gg-\	.	.	.	.	.	.	.	.	.	.	.	.	.	.	.	.	.	.	.	.	.	.	.	.	.	.	.	.	.	.	.
.	.	.	.	.	.	.	.	24ee-\	.	24gg-\	.	.	.	.	.	.	.	.	.	.	.	.	.	.	.	.	.	.	.	.	.	.	.	.	.	.	.	.	.	.	.
.	.	.	.	.	.	.	.	24ee-\	.	24gg-\	.	.	.	.	.	.	.	.	.	.	.	.	.	.	.	.	.	.	.	.	.	.	.	.	.	.	.	.	.	.	.
16B-X\Jk	.	.	.	16B-\Jk	.	16B-/Jk	.	.	.	.	.	16B-X\Jk)	.	.	.	.	.	.	.	.	.	.	.	16BB-X/Jk	.	.	.	.	.	.	16B-X\Jk	.	16B-X\Jk	.	.	.	.	.	.	.	.
.	.	.	.	.	.	.	.	24ee-\JJ	.	24gg-\JJ	.	.	.	.	.	.	.	.	.	.	.	.	.	.	.	.	.	.	.	.	.	.	.	.	.	.	.	.	.	.	.
*	*	*	*	*	*	*	*	*	*	*Xtremolo	*	*	*	*	*	*	*	*	*	*	*	*	*	*	*	*	*	*	*	*	*	*	*	*	*	*	*	*	*	*	*
=39	=39	=39	=39	=39	=39	=39	=39	=39	=39	=39	=39	=39	=39	=39	=39	=39	=39	=39	=39	=39	=39	=39	=39	=39	=39	=39	=39	=39	=39	=39	=39	=39	=39	=39	=39	=39	=39	=39	=39	=39	=39
!	!	!	!	!	!	!LO:LB:g=original	!	!LO:N:TREM:vis=4.	!	!LO:LB:g=original	!	!LO:LB:g=original	!	!	!	!	!	!	!	!	!	!	!	!	!LO:LB:g=original	!	!	!	!	!	!	!	!	!	!	!	!	!	!	!	!
8An\	2.ee-] 2.cc/	8.g-\L]	.	8An\	.	8An/	.	24ee-LL 24cc\	.	24gg-\LL	.	4An\	tol-	.	4e-\	tol-	(8.g-\L	-ca-	.	8r	.	.	2.r	2.AAn/	4r	4r	2.e-\]	.	2.f\	.	2.An\	.	2.An\	.	2.cc\	.	8gg-\L]	.	2.ee-\	8gg-X\L	8gg-\L]
.	.	.	.	.	.	.	.	24ee- 24cc\	.	24gg-\	.	.	.	.	.	.	.	.	.	.	.	.	.	.	.	.	.	.	.	.	.	.	.	.	.	.	.	.	.	.	.
.	.	.	.	.	.	.	.	24ee- 24cc\	.	24gg-\	.	.	.	.	.	.	.	.	.	.	.	.	.	.	.	.	.	.	.	.	.	.	.	.	.	.	.	.	.	.	.
8r	.	.	.	8r	.	8r	.	24ee- 24cc\	.	24ff\	.	.	.	.	.	.	.	.	.	8cc\	qui	.	.	.	.	.	.	.	.	.	.	.	.	.	.	.	8ff\J	.	.	8ff\J	8ff\J
.	.	.	.	.	.	.	.	24ee- 24cc\	.	24ff\	.	.	.	.	.	.	.	.	.	.	.	.	.	.	.	.	.	.	.	.	.	.	.	.	.	.	.	.	.	.	.
.	.	16f\Jk	.	.	.	.	.	.	.	.	.	.	.	.	.	.	16f\Jk)	.	.	.	.	.	.	.	.	.	.	.	.	.	.	.	.	.	.	.	.	.	.	.	.
.	.	.	.	.	.	.	.	24ee-JJ 24cc\	.	24ff\JJ	.	.	.	.	.	.	.	.	.	.	.	.	.	.	.	.	.	.	.	.	.	.	.	.	.	.	.	.	.	.	.
!	!	!	!	!	!	!	!	!LO:N:TREM:vis=4.	!	!	!	!	!	!	!	!	!	!	!	!	!	!	!	!	!	!	!	!	!	!	!	!	!	!	!	!	!	!	!	!	!
8A\	.	2f\	.	8A\	.	8A/	.	24ee-LL 24cc\	.	8ff\	.	4A\	-lis	.	4e-\	-lis	4f\	-ta	.	4cc\	tol-	.	.	.	2f/	2cc\	.	.	.	.	.	.	.	.	.	.	[2ff\	.	.	2ff\	[2ff\
.	.	.	.	.	.	.	.	24ee- 24cc\	.	.	.	.	.	.	.	.	.	.	.	.	.	.	.	.	.	.	.	.	.	.	.	.	.	.	.	.	.	.	.	.	.
.	.	.	.	.	.	.	.	24ee- 24cc\	.	.	.	.	.	.	.	.	.	.	.	.	.	.	.	.	.	.	.	.	.	.	.	.	.	.	.	.	.	.	.	.	.
8r	.	.	.	8r	.	8r	.	24ee- 24cc\	.	8r	.	.	.	.	.	.	.	.	.	.	.	.	.	.	.	.	.	.	.	.	.	.	.	.	.	.	.	.	.	.	.
.	.	.	.	.	.	.	.	24ee- 24cc\	.	.	.	.	.	.	.	.	.	.	.	.	.	.	.	.	.	.	.	.	.	.	.	.	.	.	.	.	.	.	.	.	.
.	.	.	.	.	.	.	.	24ee-JJ 24cc\	.	.	.	.	.	.	.	.	.	.	.	.	.	.	.	.	.	.	.	.	.	.	.	.	.	.	.	.	.	.	.	.	.
*	*	*	*	*	*	*	*	*Xtremolo	*	*	*	*	*	*	*	*	*	*	*	*	*	*	*	*	*	*	*	*	*	*	*	*	*	*	*	*	*	*	*	*	*
8A\	.	.	.	8A\	.	8A/	.	16ee-LL 16cc'\	.	4r	.	4A\	pec-	.	4e-\	pec-	4f\	pec-	.	8.cc\	-lis	.	.	.	.	.	.	.	.	.	.	.	.	.	.	.	.	.	.	.	.
.	.	.	.	.	.	.	.	16ee- 16cc'\	.	.	.	.	.	.	.	.	.	.	.	.	.	.	.	.	.	.	.	.	.	.	.	.	.	.	.	.	.	.	.	.	.
8r	.	.	.	8r	.	8r	.	16ee- 16cc'\	.	.	.	.	.	.	.	.	.	.	.	.	.	.	.	.	.	.	.	.	.	.	.	.	.	.	.	.	.	.	.	.	.
.	.	.	.	.	.	.	.	16ee-JJ 16cc'\	.	.	.	.	.	.	.	.	.	.	.	16cc\	pec-	.	.	.	.	.	.	.	.	.	.	.	.	.	.	.	.	.	.	.	.
=40	=40	=40	=40	=40	=40	=40	=40	=40	=40	=40	=40	=40	=40	=40	=40	=40	=40	=40	=40	=40	=40	=40	=40	=40	=40	=40	=40	=40	=40	=40	=40	=40	=40	=40	=40	=40	=40	=40	=40	=40	=40
!LO:LB:g=original	!LO:LB:g=original	!LO:LB:g=original	!	!LO:LB:g=original	!	!	!	!LO:LB:g=original	!	!	!	!	!	!	!	!	!	!	!	!	!	!	!	!LO:LB:g=original	!	!	!	!	!LO:LB:g=original	!	!	!	!	!	!LO:LB:g=original	!	!	!	!	!	!
*	*	*^	*	*	*	*	*	*	*	*	*	*	*	*	*	*	*	*	*	*	*	*	*	*	*	*	*	*	*	*	*	*	*	*	*	*	*	*	*	*	*
!	!	!	!	!	!LO:TX:a:t=P:problem=znak repetycji na początku taktu	!	!	!	!	!	!	!	!	!	!	!	!	!	!	!	!	!	!	!	!	!	!	!	!	!	!	!	!	!	!	!	!	!	!	!	!	!
8B-\	2dd-/	4f\	[2.b-/	.	8B-\	.	8B-/	.	16r	.	16r	.	(4B-\	-ca-	.	4d-\	-ca-	4f\	-ca-	.	4dd-\	-ca-	.	2.r	4BB-/	2.b-\	2.b-\	8B-/	.	8f\	.	4B-\	.	4B-\	.	2dd-\	.	4ff\]	.	2dd-\	4ff\	4ff\]
.	.	.	.	.	.	.	.	.	16dd-'\LL	.	16ff'\LL	.	.	.	.	.	.	.	.	.	.	.	.	.	.	.	.	.	.	.	.	.	.	.	.	.	.	.	.	.	.	.
8r	.	.	.	.	8r	.	8r	.	(16dd-\	.	(16ff\	.	.	.	.	.	.	.	.	.	.	.	.	.	.	.	.	8r	.	8r	.	.	.	.	.	.	.	.	.	.	.	.
.	.	.	.	.	.	.	.	.	16b-\JJ)	.	16dd-\JJ)	.	.	.	.	.	.	.	.	.	.	.	.	.	.	.	.	.	.	.	.	.	.	.	.	.	.	.	.	.	.	.
8G-\	.	2g-\	.	.	8G-\	.	8G-/	.	16r	.	16r	.	4G-X\)	.	.	8B-\	-ta	8g-\	-ta	.	8dd-\	-ta	.	.	4G-\	.	.	4r	.	4r	.	4G-\	.	4G-\	.	.	.	4bb-\	.	.	4bb-\	4bb-\
.	.	.	.	.	.	.	.	.	16b-'/LL	.	16dd-'\LL	.	.	.	.	.	.	.	.	.	.	.	.	.	.	.	.	.	.	.	.	.	.	.	.	.	.	.	.	.	.	.
8r	.	.	.	.	8r	.	8r	.	(16b-/	.	(16dd-\	.	.	.	.	8d-\	pec-	8g-\	pec-	.	8b-\	pec-	.	.	.	.	.	.	.	.	.	.	.	.	.	.	.	.	.	.	.	.
.	.	.	.	.	.	.	.	.	16g-/JJ)	.	16b-\JJ)	.	.	.	.	.	.	.	.	.	.	.	.	.	.	.	.	.	.	.	.	.	.	.	.	.	.	.	.	.	.	.
8E-\	4ee-/	.	.	.	8E-\	.	8E-/	.	16r	.	16r	.	4E-\	-ta	.	8e-\	-ca-	8g-\	-ca-	.	8b-\	-ca-	.	.	4E-\	.	.	4e-\	.	4g-X\	.	4E-\	.	4E-\	.	4ee-\	.	4gg-\	.	4ee-\	4gg-\	4gg-\
.	.	.	.	.	.	.	.	.	16b-'/LL	.	16gg-'\LL	.	.	.	.	.	.	.	.	.	.	.	.	.	.	.	.	.	.	.	.	.	.	.	.	.	.	.	.	.	.	.
8r	.	.	.	.	8r	.	8r	.	(16b-/	.	(16gg-\	.	.	.	.	8e-\	-ta	8g-\	-ta	.	8b-\	-ta	.	.	.	.	.	.	.	.	.	.	.	.	.	.	.	.	.	.	.	.
.	.	.	.	.	.	.	.	.	16g-/JJ)	.	16ee-\JJ)	.	.	.	.	.	.	.	.	.	.	.	.	.	.	.	.	.	.	.	.	.	.	.	.	.	.	.	.	.	.	.
*	*	*v	*v	*	*	*	*	*	*	*	*	*	*	*	*	*	*	*	*	*	*	*	*	*	*	*	*	*	*	*	*	*	*	*	*	*	*	*	*	*	*	*
=41	=41	=41	=41	=41	=41	=41	=41	=41	=41	=41	=41	=41	=41	=41	=41	=41	=41	=41	=41	=41	=41	=41	=41	=41	=41	=41	=41	=41	=41	=41	=41	=41	=41	=41	=41	=41	=41	=41	=41	=41	=41
!	!	!	!	!	!	!	!	!	!	!	!	!	!	!	!	!	!	!	!	!LO:LB:g=original	!	!	!	!	!	!	!LO:LB:g=original	!	!	!	!	!	!	!	!	!	!	!	!	!	!
8F\	2dd- 2b-/]	2.f\	.	8F\	.	8F/	.	16r	.	16r	.	2.F\	mun-	.	(2d-\	mun-	2.f\	mun-	.	(2b-\	mun-	.	2.r	2.F\	2.f/	2.f/	2.f\	.	2.f\	.	2.F\	.	2.F\	.	2dd-\	.	2ff\	.	2dd-\	2ff\	2ff\
.	.	.	.	.	.	.	.	16f'/LL	.	16dd-'\LL	.	.	.	.	.	.	.	.	.	.	.	.	.	.	.	.	.	.	.	.	.	.	.	.	.	.	.	.	.	.	.
8r	.	.	.	8r	.	8r	.	(16f/	.	(16dd-\	.	.	.	.	.	.	.	.	.	.	.	.	.	.	.	.	.	.	.	.	.	.	.	.	.	.	.	.	.	.	.
.	.	.	.	.	.	.	.	16d-/JJ)	.	16b-\JJ)	.	.	.	.	.	.	.	.	.	.	.	.	.	.	.	.	.	.	.	.	.	.	.	.	.	.	.	.	.	.	.
8F\	.	.	.	8F\	.	8F/	.	16r	.	16r	.	.	.	.	.	.	.	.	.	.	.	.	.	.	.	.	.	.	.	.	.	.	.	.	.	.	.	.	.	.	.
.	.	.	.	.	.	.	.	16d-'/LL	.	16ff'\LL	.	.	.	.	.	.	.	.	.	.	.	.	.	.	.	.	.	.	.	.	.	.	.	.	.	.	.	.	.	.	.
8r	.	.	.	8r	.	8r	.	(16d-/	.	(16ff\	.	.	.	.	.	.	.	.	.	.	.	.	.	.	.	.	.	.	.	.	.	.	.	.	.	.	.	.	.	.	.
.	.	.	.	.	.	.	.	16B-/JJ)	.	16dd-\JJ)	.	.	.	.	.	.	.	.	.	.	.	.	.	.	.	.	.	.	.	.	.	.	.	.	.	.	.	.	.	.	.
8F\	4cc 4an/	.	.	8F\	.	8F/	.	16r	.	16r	.	.	.	.	4c\)	.	.	.	.	4an\)	.	.	.	.	.	.	.	.	.	.	.	.	.	.	4cc\	.	4aa\	.	4cc\	4aan\	4aan\
.	.	.	.	.	.	.	.	16e-'/LL	.	16cc'\LL	.	.	.	.	.	.	.	.	.	.	.	.	.	.	.	.	.	.	.	.	.	.	.	.	.	.	.	.	.	.	.
8r	.	.	.	8r	.	8r	.	(16e-/	.	(16cc\	.	.	.	.	.	.	.	.	.	.	.	.	.	.	.	.	.	.	.	.	.	.	.	.	.	.	.	.	.	.	.
!	!	!	!	!LO:TX:a:t=P:problem=znak repetycji na końcuu taktu	!	!	!	!	!	!	!	!	!	!	!	!	!	!	!	!	!	!	!	!	!	!	!	!	!	!	!	!	!	!	!	!	!	!	!	!	!
.	.	.	.	.	.	.	.	16c/JJ)	.	16an\JJ)	.	.	.	.	.	.	.	.	.	.	.	.	.	.	.	.	.	.	.	.	.	.	.	.	.	.	.	.	.	.	.
=42	=42	=42	=42	=42	=42	=42	=42	=42	=42	=42	=42	=42	=42	=42	=42	=42	=42	=42	=42	=42	=42	=42	=42	=42	=42	=42	=42	=42	=42	=42	=42	=42	=42	=42	=42	=42	=42	=42	=42	=42	=42
!	!	!	!	!	!	!	!	!	!	!	!	!	!	!	!	!	!LO:LB:g=original	!	!	!	!	!	!	!	!	!	!	!	!	!	!	!	!LO:LB:g=original	!	!	!	!	!	!	!	!
*	*	*^	*	*	*	*	*	*	*	*	*	*	*	*	*	*	*	*	*	*	*	*	*	*	*	*	*	*	*	*	*	*	*	*	*	*	*	*	*	*	*
!	!	!	!	!	!LO:TX:a:t=P:problem=takty 42-43 zapisane repetycją	!	!	!	!	!	!	!	!	!	!	!	!	!	!	!	!	!	!	!	!	!	!	!	!	!	!	!	!	!	!	!	!	!	!	!	!	!
8B-\	2dd-/	4f\	[2.b-/	.	8B-\yy	.	8B-/	.	16r	.	16r	.	8B-\	-di	.	4.d-\	-di	4f\	-di	.	4.b-\	-di	.	2.r	4BB-/	2.b-\	2.b-\	8B-/	.	8f\	.	4B-\	.	4B-\	.	2dd-\	.	2bb-\	.	2dd-\	2bb-\	2bb-\
.	.	.	.	.	.	.	.	.	16dd-'\LL	.	16ff'\LL	.	.	.	.	.	.	.	.	.	.	.	.	.	.	.	.	.	.	.	.	.	.	.	.	.	.	.	.	.	.	.
8r	.	.	.	.	8ryy	.	8r	.	(16dd-\	.	(16ff\	.	8B-\	pec-	.	.	.	.	.	.	.	.	.	.	.	.	.	8r	.	8r	.	.	.	.	.	.	.	.	.	.	.	.
.	.	.	.	.	.	.	.	.	16b-\JJ)	.	16dd-\JJ)	.	.	.	.	.	.	.	.	.	.	.	.	.	.	.	.	.	.	.	.	.	.	.	.	.	.	.	.	.	.	.
8G-\	.	2g-\	.	.	8G-\yy	.	8G-/	.	16r	.	16r	.	4G-\	-ca-	.	.	.	8r	.	.	.	.	.	.	4G-\	.	.	4r	.	4r	.	4G-\	.	4G-\	.	.	.	.	.	.	.	.
.	.	.	.	.	.	.	.	.	16b-'/LL	.	16dd-'\LL	.	.	.	.	.	.	.	.	.	.	.	.	.	.	.	.	.	.	.	.	.	.	.	.	.	.	.	.	.	.	.
8r	.	.	.	.	8ryy	.	8r	.	(16b-/	.	(16dd-\	.	.	.	.	8d-\	pec-	8g-\	pec-	.	8b-\	pec-	.	.	.	.	.	.	.	.	.	.	.	.	.	.	.	.	.	.	.	.
.	.	.	.	.	.	.	.	.	16g-/JJ)	.	16b-\JJ)	.	.	.	.	.	.	.	.	.	.	.	.	.	.	.	.	.	.	.	.	.	.	.	.	.	.	.	.	.	.	.
*	*	*	*	*	*	*	*	*	*	*	*custos:b	*	*	*	*	*	*	*	*	*	*	*	*	*	*	*	*	*	*	*	*	*	*	*	*	*	*	*	*	*	*	*
!	!	!	!	!	!	!	!	!	!	!	!LO:LB:g=original	!	!	!	!	!	!	!	!	!	!	!	!	!	!	!	!	!	!	!	!	!	!	!	!	!	!	!	!	!	!	!
8E-\	4ee-/	.	.	.	8E-\yy	.	8E-/	.	16r	.	16r	.	4E-\	-ta	.	8e-\	-ca-	8g-\	-ca-	.	8b-\	-ca-	.	.	4E-\	.	.	4e-\	.	4g-X\	.	4E-\	.	4E-\	.	4ee-\	.	4gg-\	.	4ee-\	4gg-\	4gg-\
.	.	.	.	.	.	.	.	.	16b-'/LL	.	16gg-'\LL	.	.	.	.	.	.	.	.	.	.	.	.	.	.	.	.	.	.	.	.	.	.	.	.	.	.	.	.	.	.	.
8r	.	.	.	.	8ryy	.	8r	.	(16b-/	.	(16gg-\	.	.	.	.	8e-\	-ta	8g-\	-ta	.	8b-\	-ta	.	.	.	.	.	.	.	.	.	.	.	.	.	.	.	.	.	.	.	.
.	.	.	.	.	.	.	.	.	16g-/JJ)	.	16ee-\JJ)	.	.	.	.	.	.	.	.	.	.	.	.	.	.	.	.	.	.	.	.	.	.	.	.	.	.	.	.	.	.	.
*	*	*v	*v	*	*	*	*	*	*	*	*	*	*	*	*	*	*	*	*	*	*	*	*	*	*	*	*	*	*	*	*	*	*	*	*	*	*	*	*	*	*	*
=43	=43	=43	=43	=43	=43	=43	=43	=43	=43	=43	=43	=43	=43	=43	=43	=43	=43	=43	=43	=43	=43	=43	=43	=43	=43	=43	=43	=43	=43	=43	=43	=43	=43	=43	=43	=43	=43	=43	=43	=43	=43
!	!	!	!	!	!	!	!	!LO:LB:g=original	!	!	!	!	!	!	!LO:LB:g=original	!	!	!	!	!	!	!	!	!	!	!	!	!	!	!	!	!	!	!	!	!	!LO:LB:g=original	!	!LO:LB:g=original	!LO:LB:g=original	!
8F\	2dd- 2b-/]	2.f\	.	8F\yy	.	8F/	.	16r	.	16r	.	2.F\	mun-	.	(2d-\	mun-	2.f\	mun-	.	(2b-\	mun-	.	2.r	2.F\	2.f/	2.f/	[2.f\	.	2.f\	.	2.F\	.	2.F\	.	2dd-\	.	2ff\	.	2dd-\	2ff\	2ff\
.	.	.	.	.	.	.	.	16f'/LL	.	16dd-'\LL	.	.	.	.	.	.	.	.	.	.	.	.	.	.	.	.	.	.	.	.	.	.	.	.	.	.	.	.	.	.	.
8r	.	.	.	8ryy	.	8r	.	(16f/	.	(16dd-\	.	.	.	.	.	.	.	.	.	.	.	.	.	.	.	.	.	.	.	.	.	.	.	.	.	.	.	.	.	.	.
.	.	.	.	.	.	.	.	16d-/JJ)	.	16b-\JJ)	.	.	.	.	.	.	.	.	.	.	.	.	.	.	.	.	.	.	.	.	.	.	.	.	.	.	.	.	.	.	.
8F\	.	.	.	8F\yy	.	8F/	.	16r	.	16r	.	.	.	.	.	.	.	.	.	.	.	.	.	.	.	.	.	.	.	.	.	.	.	.	.	.	.	.	.	.	.
.	.	.	.	.	.	.	.	16d-'/LL	.	16ff'\LL	.	.	.	.	.	.	.	.	.	.	.	.	.	.	.	.	.	.	.	.	.	.	.	.	.	.	.	.	.	.	.
8r	.	.	.	8ryy	.	8r	.	(16d-/	.	(16ff\	.	.	.	.	.	.	.	.	.	.	.	.	.	.	.	.	.	.	.	.	.	.	.	.	.	.	.	.	.	.	.
.	.	.	.	.	.	.	.	16B-/JJ)	.	16dd-\JJ)	.	.	.	.	.	.	.	.	.	.	.	.	.	.	.	.	.	.	.	.	.	.	.	.	.	.	.	.	.	.	.
8F\	4cc 4an/	.	.	8F\yy	.	8F/	.	16r	.	16r	.	.	.	.	4c\)	.	.	.	.	4an\)	.	.	.	.	.	.	.	.	.	.	.	.	.	.	4cc\	.	4aa\	.	4cc\	4aan\	4aan\
.	.	.	.	.	.	.	.	16e-'/LL	.	16cc'\LL	.	.	.	.	.	.	.	.	.	.	.	.	.	.	.	.	.	.	.	.	.	.	.	.	.	.	.	.	.	.	.
8r	.	.	.	8ryy	.	8r	.	(16e-/	.	(16cc\	.	.	.	.	.	.	.	.	.	.	.	.	.	.	.	.	.	.	.	.	.	.	.	.	.	.	.	.	.	.	.
.	.	.	.	.	.	.	.	16c/JJ)	.	16an\JJ)	.	.	.	.	.	.	.	.	.	.	.	.	.	.	.	.	.	.	.	.	.	.	.	.	.	.	.	.	.	.	.
*	*v	*v	*	*	*	*	*	*	*	*	*	*	*	*	*	*	*	*	*	*	*	*	*	*	*	*	*	*	*	*	*	*	*	*	*	*	*	*	*	*	*
=44	=44	=44	=44	=44	=44	=44	=44	=44	=44	=44	=44	=44	=44	=44	=44	=44	=44	=44	=44	=44	=44	=44	=44	=44	=44	=44	=44	=44	=44	=44	=44	=44	=44	=44	=44	=44	=44	=44	=44	=44
!	!LO:TX:a:i:t=Cornu Solo	!LO:DY:b=2	!	!LO:DY:b	!	!LO:DY:b	!	!	!	!	!	!	!	!	!	!	!	!	!	!	!	!	!	!	!	!	!	!LO:TX:a:Bi:t=Solo.	!	!LO:LB:g=original	!	!	!	!	!	!	!	!	!	!
4BB-/	4b- 4d-/	fp	(4BB-/	fp	(4d-\	fp	4B-/	.	4b-\	.	4BB-/	-di	.	4B-\	-di	4d-\	-di	.	4b-\	-di	.	2.r	4BB-/	4B-/	4B-/	4f\]	.	(4B-/	.	4BB-/	.	4BB-/	.	4b-\	.	4bb-\	.	4dd-\	4bb-\	4bb-\
4C/	4an/	.	4C/	.	4e-\	.	4r	.	4r	.	4r	.	.	4r	.	4r	.	.	4r	.	.	.	2r	2r	2r	2r	.	4AX/	.	2r	.	2r	.	4r	.	4r	.	4r	4r	4r
4D-/	4b-/	.	4D-/)	.	4f\)	.	4r	.	4r	.	4r	.	.	4r	.	4r	.	.	4r	.	.	.	.	.	.	.	.	4B-/)	.	.	.	.	.	4r	.	4r	.	4r	4r	4r
=45	=45	=45	=45	=45	=45	=45	=45	=45	=45	=45	=45	=45	=45	=45	=45	=45	=45	=45	=45	=45	=45	=45	=45	=45	=45	=45	=45	=45	=45	=45	=45	=45	=45	=45	=45	=45	=45	=45	=45	=45
!LO:LB:g=original	!LO:LB:g=original	!	!	!	!LO:LB:g=original	!	!	!	!	!	!LO:LB:g=original	!	!	!	!	!	!	!	!	!	!	!	!	!	!	!	!	!	!	!	!	!	!	!	!	!	!	!	!	!
!	!	!	!	!	!	!	!	!	!LO:TX:a:t=1.	!	!LO:TX:a:t=2.	!	!	!LO:TX:a:t=2.	!	!LO:TX:a:t=2.	!	!	!LO:TX:a:t=2.	!	!	!	!LO:TX:a:t=6.	!LO:TX:a:t=6.	!LO:TX:a:t=6.	!LO:TX:a:t=6.	!	!	!	!LO:TX:a:t=6.	!	!LO:TX:a:t=4.	!	!LO:TX:a:t=6.	!	!LO:TX:a:t=4.	!	!LO:TX:a:t=6.	!LO:TX:a:t=6.	!LO:TX:a:t=6.
!	!	!	!	!	!	!	!	!	!	!	!LO:N:vis=0	!	!	!LO:N:vis=0	!	!LO:N:vis=0	!	!	!LO:N:vis=0	!	!	!	!LO:N:vis=00	!LO:N:vis=00	!LO:N:vis=00	!LO:N:vis=00	!	!	!	!LO:N:vis=00	!	!LO:N:vis=00	!	!LO:N:vis=00	!	!LO:N:vis=00	!	!LO:N:vis=00	!LO:N:vis=00	!LO:N:vis=00
8.E-\L	8.gg-\L	.	(8.E-\L	.	(8.g-\L	.	4r	.	2.r	.	1.r	.	.	1.r	.	1.r	.	.	1.r	.	.	2.r	0.r	0.r	0.r	0.r	.	(8.g-X\L	.	0.r	.	0.r	.	0.r	.	0.r	.	0.r	0.r	0.r
16F\Jk	16ff\Jk	.	16F\Jk	.	16a-\Jk	.	.	.	.	.	.	.	.	.	.	.	.	.	.	.	.	.	.	.	.	.	.	16f\Jk	.	.	.	.	.	.	.	.	.	.	.	.
4G-\	4.ee-\	.	4G-\)	.	4b-\)	.	8r	.	.	.	.	.	.	.	.	.	.	.	.	.	.	.	.	.	.	.	.	4.e-\	.	.	.	.	.	.	.	.	.	.	.	.
.	.	.	.	.	.	.	4e-/	.	.	.	.	.	.	.	.	.	.	.	.	.	.	.	.	.	.	.	.	.	.	.	.	.	.	.	.	.	.	.	.	.
4G-\	.	.	4G-\	.	(<4B-/	.	.	.	.	.	.	.	.	.	.	.	.	.	.	.	.	.	.	.	.	.	.	.	.	.	.	.	.	.	.	.	.	.	.	.
.	8dd-\	.	.	.	.	.	8d-/	.	.	.	.	.	.	.	.	.	.	.	.	.	.	.	.	.	.	.	.	8d-X\)	.	.	.	.	.	.	.	.	.	.	.	.
=46	=46	=46	=46	=46	=46	=46	=46	=46	=46	=46	=46	=46	=46	=46	=46	=46	=46	=46	=46	=46	=46	=46	=46	=46	=46	=46	=46	=46	=46	=46	=46	=46	=46	=46	=46	=46	=46	=46	=46	=46
!	!	!	!	!	!	!	!	!	!	!	!	!	!	!	!	!	!	!	!	!	!	!	!	!	!	!	!	!LO:LB:g=original	!	!	!	!	!	!	!	!	!	!	!	!
4c-X\	4cc-X\	.	4c-X\	.	4e-\	.	4c-X/	.	4r	.	.	.	.	.	.	.	.	.	.	.	.	2.r	.	.	.	.	.	(<4c-X/	.	.	.	.	.	.	.	.	.	.	.	.
4d-\	4b-\	.	4d-\	.	4f\	.	4B-/	.	8r	.	.	.	.	.	.	.	.	.	.	.	.	.	.	.	.	.	.	4B-/	.	.	.	.	.	.	.	.	.	.	.	.
.	.	.	.	.	.	.	.	.	4b-\	.	.	.	.	.	.	.	.	.	.	.	.	.	.	.	.	.	.	.	.	.	.	.	.	.	.	.	.	.	.	.
4G-\	8.ee-\L	.	4G-\	.	4B-/	.	8.e-/L	.	.	.	.	.	.	.	.	.	.	.	.	.	.	.	.	.	.	.	.	8.e-\L	.	.	.	.	.	.	.	.	.	.	.	.
.	.	.	.	.	.	.	.	.	8bb-\	.	.	.	.	.	.	.	.	.	.	.	.	.	.	.	.	.	.	.	.	.	.	.	.	.	.	.	.	.	.	.
.	16ff\Jk	.	.	.	.	.	16f/Jk	.	.	.	.	.	.	.	.	.	.	.	.	.	.	.	.	.	.	.	.	16f\Jk)	.	.	.	.	.	.	.	.	.	.	.	.
=47	=47	=47	=47	=47	=47	=47	=47	=47	=47	=47	=47	=47	=47	=47	=47	=47	=47	=47	=47	=47	=47	=47	=47	=47	=47	=47	=47	=47	=47	=47	=47	=47	=47	=47	=47	=47	=47	=47	=47	=47
!	!	!	!LO:LB:g=original	!	!	!	!	!	!	!	!	!	!	!	!	!	!	!	!	!	!	!	!	!	!	!	!	!	!	!	!	!	!	!	!	!	!	!	!	!
[2.F\	2ff\	.	2.F\	.	2.c/)	.	2f/	.	2aant\	.	4r	.	.	4r	.	4r	.	.	4r	.	.	2.r	.	.	.	.	.	2f\	.	.	.	.	.	.	.	.	.	.	.	.
!	!	!	!	!	!	!	!	!	!	!	!	!	!	!	!	!	!	!LO:DY:b	!	!	!	!	!	!	!	!	!	!	!	!	!	!	!	!	!	!	!	!	!	!
.	.	.	.	.	.	.	.	.	.	.	4r	.	.	4r	.	4r	.	p	4r	.	.	.	.	.	.	.	.	.	.	.	.	.	.	.	.	.	.	.	.	.
!	!	!	!	!	!	!	!	!	!	!	!	!	!	!	!	!	!	!	!	!	!LO:DY:b	!	!	!	!	!	!	!	!	!	!	!	!	!	!	!	!	!	!	!
.	.	.	.	.	.	.	.	.	.	.	.	.	.	.	.	.	.	.	.	.	p	.	.	.	.	.	.	.	.	.	.	.	.	.	.	.	.	.	.	.
*	*	*	*	*	*	*	*	*	*tuplet	*	*	*	*	*	*	*	*	*	*	*	*	*	*	*	*	*	*	*	*	*	*	*	*	*	*	*	*	*	*	*
.	4r	.	.	.	.	.	4e-/	.	(12aa\L	.	8F\	mi-	.	8c\	mi-	8e-\	mi-	.	8an\	mi-	.	.	.	.	.	.	.	4r	.	.	.	.	.	.	.	.	.	.	.	.
.	.	.	.	.	.	.	.	.	12bb-\	.	.	.	.	.	.	.	.	.	.	.	.	.	.	.	.	.	.	.	.	.	.	.	.	.	.	.	.	.	.	.
.	.	.	.	.	.	.	.	.	.	.	8F\	-se-	.	8c\	-se-	8e-\	-se-	.	8a\	-se-	.	.	.	.	.	.	.	.	.	.	.	.	.	.	.	.	.	.	.	.
.	.	.	.	.	.	.	.	.	12ccc\J)	.	.	.	.	.	.	.	.	.	.	.	.	.	.	.	.	.	.	.	.	.	.	.	.	.	.	.	.	.	.	.
=48	=48	=48	=48	=48	=48	=48	=48	=48	=48	=48	=48	=48	=48	=48	=48	=48	=48	=48	=48	=48	=48	=48	=48	=48	=48	=48	=48	=48	=48	=48	=48	=48	=48	=48	=48	=48	=48	=48	=48	=48
!	!	!	!	!	!	!	!	!	!LO:LB:g=original	!	!	!	!	!	!	!	!	!	!LO:PB:g=original	!	!	!	!	!	!	!	!	!	!	!	!	!	!	!	!	!	!	!	!	!
!	!	!	!	!	!	!	!	!	!	!	!	!	!	!	!	!	!	!	!	!	!	!	!	!	!	!	!	!LO:TX:a:t=2.	!	!	!	!	!	!	!	!	!	!	!	!
!	!	!	!	!	!	!	!	!	!	!	!	!	!	!	!	!	!	!	!	!	!	!	!	!	!	!	!	!LO:N:vis=0	!	!	!	!	!	!	!	!	!	!	!	!
2.F\]	2.r	.	2.F\	.	2B-/	.	2d-/	.	(2bb-\	.	8F\	-re-	.	8d-\	-re-	8d-\	-re-	.	8b-\	-re-	.	2.r	.	.	.	.	.	1.r	.	.	.	.	.	.	.	.	.	.	.	.
.	.	.	.	.	.	.	.	.	.	.	8F\	-re	.	8d-\	-re	8d-\	-re	.	8b-\	-re	.	.	.	.	.	.	.	.	.	.	.	.	.	.	.	.	.	.	.	.
.	.	.	.	.	.	.	.	.	.	.	2F\	no-	.	2B-\	no-	2en\	no-	.	2gn/	no-	.	.	.	.	.	.	.	.	.	.	.	.	.	.	.	.	.	.	.	.
.	.	.	.	.	4Gn/	.	4B-/	.	4een\	.	.	.	.	.	.	.	.	.	.	.	.	.	.	.	.	.	.	.	.	.	.	.	.	.	.	.	.	.	.	.
=49	=49	=49	=49	=49	=49	=49	=49	=49	=49	=49	=49	=49	=49	=49	=49	=49	=49	=49	=49	=49	=49	=49	=49	=49	=49	=49	=49	=49	=49	=49	=49	=49	=49	=49	=49	=49	=49	=49	=49	=49
!	!LO:TX:b:i:t=Clarinetto	!	!	!	!	!	!LO:LB:g=original	!	!	!	!	!	!	!	!	!	!	!	!	!	!	!	!LO:N:vis=0	!LO:N:vis=0	!LO:N:vis=0	!LO:N:vis=0	!	!	!	!LO:N:vis=0	!	!LO:TX:b:Bi:t=Solo	!	!LO:N:vis=0	!	!LO:TX:b:Bi:t=Solo	!	!LO:N:vis=0	!LO:N:vis=0	!LO:N:vis=0
[2.FF/	[2.ff\	.	2.FF/	.	4F/	.	4An/	.	4ff\)	.	4F\	-bis	.	4An\	-bis	4f\	-bis	.	4f/	-bis	.	2.r	1.r	1.r	1.r	1.r	.	.	.	1.r	.	[2.f\	.	1.r	.	[2.ff\	.	1.r	1.r	1.r
.	.	.	.	.	4Gn/	.	4B-/	.	2r	.	4r	.	.	4r	.	4r	.	.	4r	.	.	.	.	.	.	.	.	.	.	.	.	.	.	.	.	.	.	.	.	.
.	.	.	.	.	4G#X/	.	4Bn/	.	.	.	4r	.	.	4r	.	4r	.	.	4r	.	.	.	.	.	.	.	.	.	.	.	.	.	.	.	.	.	.	.	.	.
=50	=50	=50	=50	=50	=50	=50	=50	=50	=50	=50	=50	=50	=50	=50	=50	=50	=50	=50	=50	=50	=50	=50	=50	=50	=50	=50	=50	=50	=50	=50	=50	=50	=50	=50	=50	=50	=50	=50	=50	=50
!LO:LB:g=original	!LO:LB:g=original	!	!	!	!	!	!	!	!	!	!	!	!	!	!	!LO:LB:g=original	!	!	!	!	!	!	!	!	!	!	!	!	!	!	!	!	!	!	!	!	!	!	!	!
!	!	!	!	!	!	!	!	!	!LO:TX:a:t=1.	!	!LO:TX:a:t=1.	!	!	!LO:TX:a:t=1.	!	!LO:TX:a:t=1.	!	!	!LO:TX:a:t=1.	!	!	!	!	!	!	!	!	!	!	!	!	!	!	!	!	!	!	!	!	!
2.FF/_	16ff\LL]	.	2.FF/	.	[2.An/	.	2.c/	.	2.r	.	2.r	.	.	2.r	.	2.r	.	.	2.r	.	.	2.r	.	.	.	.	.	4r	.	.	.	16f\LL]	.	.	.	16ff\LL]	.	.	.	.
.	16ee-\	.	.	.	.	.	.	.	.	.	.	.	.	.	.	.	.	.	.	.	.	.	.	.	.	.	.	.	.	.	.	16e-\	.	.	.	16ee-\	.	.	.	.
.	16cc\	.	.	.	.	.	.	.	.	.	.	.	.	.	.	.	.	.	.	.	.	.	.	.	.	.	.	.	.	.	.	16c\	.	.	.	16cc\	.	.	.	.
.	16an\JJ	.	.	.	.	.	.	.	.	.	.	.	.	.	.	.	.	.	.	.	.	.	.	.	.	.	.	.	.	.	.	16An\JJ	.	.	.	16a\JJ	.	.	.	.
.	8f/	.	.	.	.	.	.	.	.	.	.	.	.	.	.	.	.	.	.	.	.	.	.	.	.	.	.	8r	.	.	.	4F\	.	.	.	4f/	.	.	.	.
!	!LO:TX:b:i:t=Cornu	!	!	!	!	!	!	!	!	!	!	!	!	!	!	!	!	!	!	!	!	!	!	!	!	!	!	!	!	!	!	!	!	!	!	!	!	!	!	!
.	8f/L	.	.	.	.	.	.	.	.	.	.	.	.	.	.	.	.	.	.	.	.	.	.	.	.	.	.	(8f\L	.	.	.	.	.	.	.	.	.	.	.	.
.	8.g-X/	.	.	.	.	.	.	.	.	.	.	.	.	.	.	.	.	.	.	.	.	.	.	.	.	.	.	8.g-X\	.	.	.	4r	.	.	.	4r	.	.	.	.
.	16f/Jk	.	.	.	.	.	.	.	.	.	.	.	.	.	.	.	.	.	.	.	.	.	.	.	.	.	.	16f\Jk)	.	.	.	.	.	.	.	.	.	.	.	.
=51	=51	=51	=51	=51	=51	=51	=51	=51	=51	=51	=51	=51	=51	=51	=51	=51	=51	=51	=51	=51	=51	=51	=51	=51	=51	=51	=51	=51	=51	=51	=51	=51	=51	=51	=51	=51	=51	=51	=51	=51
!	!	!LO:HP:b	!	!	!	!	!	!	!	!	!	!	!	!	!	!	!	!	!	!	!	!	!	!	!	!	!	!	!	!	!	!	!	!	!	!	!	!	!	!
2.FF;/]	2.f;/	<	2.FF;/	.	2.AnX;/]	.	2.c;/	.	2.r;	.	2.r;	.	.	2.r;	.	2.r;	.	.	2.r;	.	.	2.r;	2.r;	2.r;	2.r;	2.r;	.	2.f;\	<	2.r;	.	2.r;	.	2.r;	.	2.r;	.	2.r;	2.r;	2.r;
.	.	[	.	.	.	.	.	.	.	.	.	.	.	.	.	.	.	.	.	.	.	.	.	.	.	.	.	.	[	.	.	.	.	.	.	.	.	.	.	.
!	!	!LO:HP:b	!	!	!	!	!	!	!	!	!	!	!	!	!	!	!	!	!	!	!	!	!	!	!	!	!	!	!	!	!	!	!	!	!	!	!	!	!	!
.	.	>	.	.	.	.	.	.	.	.	.	.	.	.	.	.	.	.	.	.	.	.	.	.	.	.	.	.	>	.	.	.	.	.	.	.	.	.	.	.
.	.	]	.	.	.	.	.	.	.	.	.	.	.	.	.	.	.	.	.	.	.	.	.	.	.	.	.	.	]	.	.	.	.	.	.	.	.	.	.	.
==	==	==	==	==	==	==	==	==	==	==	==	==	==	==	==	==	==	==	==	==	==	==	==	==	==	==	==	==	==	==	==	==	==	==	==	==	==	==	==	==
*-	*-	*-	*-	*-	*-	*-	*-	*-	*-	*-	*-	*-	*-	*-	*-	*-	*-	*-	*-	*-	*-	*-	*-	*-	*-	*-	*-	*-	*-	*-	*-	*-	*-	*-	*-	*-	*-	*-	*-	*-
!!!system-decoration: [g1][g2]s13[g3][g4]{s22,s23}
!!!RDF**kern: > = above
!!!RDF**kern: < = below
!!!RDF**dynam: p = "p."
!!!ENC: Marta Lawrence
!!!END: 2020-06-03
!!!ENC: Andrzej Kubiczek
!!!END: 2020-03-29
